!!!!SEGMENT: pl-cz--iii-105--008_dankowski-adalbert--missa-d-sanctus.krn
!!!cenid: 18xx:748
!!!COM: Dankowski, Adalbert
!!!COM-rismID:
!!!CDT: ~1760-~1836
!!!CNT: Polish
!!!OPR: Missa D
!!!OTL: Sanctus
!!!OMV: 008
!!!PDT:
!!!AGN: Sacred; Mass
!!!SMS-siglum: PL-CZ
!!!SMS-shelfmark: III-105
!!!SMS-shelfwork: 001-008 M
!!!SMS-variant:
!!!SMS-altvar:
!!!NIFC-rismSourceID: 300000109
!!!NIFC-islandoraID: pl-cz:34145
!!!URL-pdf-islandora: https://repozytorium.nifc.pl/islandora/object/pl-cz%3A34145/datastream/PDF/view
!!!URL-scan:
!!!ONB-nifc: UWAGA: części Mszy: Kyrie, Gloria, Qui tollis, Quoniam, Cum Sancto, Patrem, Et resurrexit, Sanctus, Benedictus, Agnus Dei, Dona nobis
!!!AIN: 1 alto 1 bass 2 clars 2 cor 2 oboe 1 organ 1 soprn 1 tenor 1 timpa 1 viola 2 violn
!!!key: D
!!!OMD:
!!!OMD-mod: Adagio
**kern	**fba	**dynam	**kern	**dynam	**kern	**dynam	**kern	**dynam	**kern	**text	**mod-text	**dynam	**mod-dynam	**kern	**text	**mod-text	**dynam	**mod-dynam	**kern	**text	**mod-text	**dynam	**mod-dynam	**kern	**text	**mod-text	**dynam	**mod-dynam	**kern	**dynam	**kern	**dynam	**kern	**dynam	**kern	**dynam	**kern	**dynam	**kern	**dynam	**kern	**dynam
*part15	*part15	*part15	*part14	*part14	*part13	*part13	*part12	*part12	*part11	*part11	*part11	*part11	*part11	*part10	*part10	*part10	*part10	*part10	*part9	*part9	*part9	*part9	*part9	*part8	*part8	*part8	*part8	*part8	*part7	*part7	*part6	*part6	*part5	*part5	*part4	*part4	*part3	*part3	*part2	*part2	*part1	*part1
*staff15	*staff15	*	*staff14	*	*staff13	*	*staff12	*	*staff11	*staff11	*staff11	*	*	*staff10	*staff10	*staff10	*	*	*staff9	*staff9	*staff9	*	*	*staff8	*staff8	*staff8	*	*	*staff7	*	*staff6	*	*staff5	*	*staff4	*	*staff3	*	*staff2	*	*staff1	*
*I"Organo	*	*	*I"Viola Obligatto	*	*I"Violino Secundo	*	*I"Violino Primo	*	*I"Baſso	*	*	*	*	*I"Tenore	*	*	*	*	*I"Alto.	*	*	*	*	*I"Canto	*	*	*	*	*I"Timpano do D. A.	*	*I"Cornu Secundo ex D	*	*I"Cornu Primo ex D	*	*I"Clarinetto Secundo Ex A:	*	*I"Clarinetto Primo Ex A:	*	*I"Oboe Secundo Oblig:	*	*I"Oboe Primo Oblig:	*
*	*	*	*mI"Viola obligato	*	*mI"Violino II	*	*mI"Violino I	*	*mI"Basso	*	*	*	*	*	*	*	*	*	*mI"Alto	*	*	*	*	*mI"Soprano	*	*	*	*	*mI"Timpano in D A	*	*mI"Corno II in D	*	*mI"Corno I in D	*	*mI"Clarinetto II in A	*	*mI"Clarinetto I in A	*	*mI"Oboe II obligato	*	*mI"Oboe I obligato	*
*I'org	*	*	*I'vla	*	*I'vl 2	*	*I'vl 1	*	*I'B	*	*	*	*	*I'T	*	*	*	*	*I'A	*	*	*	*	*I'S	*	*	*	*	*I'timp	*	*I'cor 2 in D	*	*I'cor 1 in D	*	*I'cl 2 in A	*	*I'cl 1 in A	*	*I'ob 2	*	*I'ob 1	*
*Iorgan	*	*	*Iviola	*	*Ivioln	*	*Ivioln	*	*Ibass	*	*	*	*	*Itenor	*	*	*	*	*Ialto	*	*	*	*	*Isoprn	*	*	*	*	*Itimpa	*	*Icor	*	*Icor	*	*Iclars	*	*Iclars	*	*Ioboe	*	*Ioboe	*
*ICklav	*	*	*ICstr	*	*ICstr	*	*ICstr	*	*ICvox	*	*	*	*	*ICvox	*	*	*	*	*ICvox	*	*	*	*	*ICvox	*	*	*	*	*ICidio	*	*ICbras	*	*ICbras	*	*ICww	*	*ICww	*	*ICww	*	*ICww	*
*IGcont	*	*	*IGacmp	*	*IGacmp	*	*IGacmp	*	*IGcoro	*	*	*	*	*IGcoro	*	*	*	*	*IGcoro	*	*	*	*	*IGcoro	*	*	*	*	*IGacmp	*	*IGacmp	*	*IGacmp	*	*IGacmp	*	*IGacmp	*	*IGacmp	*	*IGacmp	*
*clefF4	*	*	*clefC3	*	*clefG2	*	*clefG2	*	*clefF4	*	*	*	*	*clefC4	*	*	*	*	*clefC3	*	*	*	*	*clefC1	*	*	*	*	*clefF4	*	*clefG2	*	*clefG2	*	*clefG2	*	*clefG2	*	*clefG2	*	*clefG2	*
*	*	*	*	*	*	*	*	*	*	*	*	*	*	*mclefGv2	*	*	*	*	*mclefG2	*	*	*	*	*mclefG2	*	*	*	*	*	*	*	*	*	*	*	*	*	*	*	*	*	*
*	*	*	*	*	*	*	*	*	*	*	*	*	*	*	*	*	*	*	*	*	*	*	*	*	*	*	*	*	*	*	*ITrd6c10	*	*ITrd6c10	*	*ITrd2c3	*	*ITrd2c3	*	*	*	*	*
*k[f#c#]	*	*	*k[f#c#]	*	*k[f#c#]	*	*k[f#c#]	*	*k[f#c#]	*	*	*	*	*k[f#c#]	*	*	*	*	*k[f#c#]	*	*	*	*	*k[f#c#]	*	*	*	*	*k[f#c#]	*	*k[f#c#]	*	*k[f#c#]	*	*k[f#c#]	*	*k[f#c#]	*	*k[f#c#]	*	*k[f#c#]	*
*D:	*	*	*D:	*	*D:	*	*D:	*	*D:	*	*	*	*	*D:	*	*	*	*	*D:	*	*	*	*	*D:	*	*	*	*	*D:	*	*D:	*	*D:	*	*D:	*	*D:	*	*D:	*	*D:	*
*M4/4	*	*	*M4/4	*	*M4/4	*	*M4/4	*	*M4/4	*	*	*	*	*M4/4	*	*	*	*	*M4/4	*	*	*	*	*M4/4	*	*	*	*	*M4/4	*	*M4/4	*	*M4/4	*	*M4/4	*	*M4/4	*	*M4/4	*	*M4/4	*
*met(C.)	*	*	*met(C.)	*	*met(C.)	*	*met(C.)	*	*met(C.)	*	*	*	*	*met(C.)	*	*	*	*	*met(C.)	*	*	*	*	*met(C.)	*	*	*	*	*met(c)	*	*met(C.)	*	*met(C.)	*	*met(c)	*	*met(c)	*	*met(C.)	*	*met(C.)	*
=1	=1	=1	=1	=1	=1	=1	=1	=1	=1	=1	=1	=1	=1	=1	=1	=1	=1	=1	=1	=1	=1	=1	=1	=1	=1	=1	=1	=1	=1	=1	=1	=1	=1	=1	=1	=1	=1	=1	=1	=1	=1	=1
*	*	*	*	*	*	*	*	*	*	*	*	*	*	*	*	*	*	*	*	*	*	*	*	*	*	*	*	*	*2\right	*	*	*	*2\right	*	*2\right	*	*2\right	*	*2\right	*	*2\right	*
*2\right	*	*	*2\right	*	*2\right	*	*2\right	*	*2\right	*	*	*	*	*2\right	*	*	*	*	*2\right	*	*	*	*	*2\right	*	*	*	*	*tremolo	*	*	*	*	*	*	*	*	*	*	*	*	*
!	!	!LO:MO:null:mod=!LO&colon;DY&colon;ed=brack	!	!	!	!	!	!	!	!	!	!	!	!	!	!	!	!	!	!	!	!	!	!	!	!	!	!	!	!	!	!LO:MO:null:mod=!LO&colon;DY&colon;ed=brack	!	!LO:MO:null:mod=!LO&colon;DY&colon;ed=brack	!	!LO:MO:null:mod=!LO&colon;DY&colon;ed=brack	!	!LO:MO:null:mod=!LO&colon;DY&colon;ed=brack	!	!LO:MO:null:mod=!LO&colon;DY&colon;ed=brack	!	!LO:MO:null:mod=!LO&colon;DY&colon;ed=brack
!LO:TX:a:i:t=tutti	!	!	!	!	!	!	!	!	!	!	!	!	!	!	!	!	!	!	!	!	!	!	!	!	!	!	!	!	!	!	!	!	!	!	!	!	!	!	!	!	!	!
!LO:TX:a:Bi:t=adag&colon;:mod=	!	!LO:MO:null:mod=f	!LO:TX:a:Bi:t=adag&colon;:mod=	!LO:DY:a:t=f&colon;	!LO:TX:a:Bi:t=adag&colon;:mod=	!LO:DY:a:t=f&colon;	!LO:TX:a:Bi:t=adag&colon;:mod=	!LO:DY:a	!LO:TX:a:Bi:t=adag&colon;:mod=	!	!	!	!LO:DY:ed=brack	!LO:TX:a:Bi:t=adag&colon;:mod=	!	!	!	!LO:DY:ed=brack	!LO:TX:a:Bi:t=adag&colon;:mod=	!	!	!	!LO:DY:ed=brack	!LO:TX:a:Bi:t=adag&colon;:mod=	!	!	!	!LO:DY:ed=brack	!LO:TX:a:Bi:t=Adagio:mod=	!LO:DY:rj:t=p.	!LO:TX:a:Bi:t=adag&colon;:mod=	!LO:MO:null:mod=f	!LO:TX:a:Bi:t=adag&colon;:mod=	!LO:MO:null:mod=f	!LO:TX:a:Bi:t=adag&colon;:mod=	!LO:MO:null:mod=f	!LO:TX:a:Bi:t=adag&colon;:mod=	!LO:MO:null:mod=f	!LO:TX:a:Bi:t=adagio&colon;:mod=	!LO:MO:null:mod=f	!LO:TX:a:Bi:t=adagio&colon;:mod=	!LO:MO:null:mod=f
2D\	.	.	2f# 2A\	f	2dd 2f#\	f	2ff# 2a 2d\	f	2D\	San-	San-	.	f	2A\	San-	San-	.	f	2f#\	San-	San-	.	f	2dd\	San-	San-	.	f	16D\LL	p	2F#/	.	2d\	.	2dd\	.	2ff#\	.	2dd\	.	2ff#\	.
.	.	.	.	.	.	.	.	.	.	.	.	.	.	.	.	.	.	.	.	.	.	.	.	.	.	.	.	.	16D\	.	.	.	.	.	.	.	.	.	.	.	.	.
.	.	.	.	.	.	.	.	.	.	.	.	.	.	.	.	.	.	.	.	.	.	.	.	.	.	.	.	.	16D\	.	.	.	.	.	.	.	.	.	.	.	.	.
.	.	.	.	.	.	.	.	.	.	.	.	.	.	.	.	.	.	.	.	.	.	.	.	.	.	.	.	.	16D\	.	.	.	.	.	.	.	.	.	.	.	.	.
.	.	.	.	.	.	.	.	.	.	.	.	.	.	.	.	.	.	.	.	.	.	.	.	.	.	.	.	.	16D\	.	.	.	.	.	.	.	.	.	.	.	.	.
.	.	.	.	.	.	.	.	.	.	.	.	.	.	.	.	.	.	.	.	.	.	.	.	.	.	.	.	.	16D\	.	.	.	.	.	.	.	.	.	.	.	.	.
.	.	.	.	.	.	.	.	.	.	.	.	.	.	.	.	.	.	.	.	.	.	.	.	.	.	.	.	.	16D\	.	.	.	.	.	.	.	.	.	.	.	.	.
.	.	.	.	.	.	.	.	.	.	.	.	.	.	.	.	.	.	.	.	.	.	.	.	.	.	.	.	.	16D\JJ	.	.	.	.	.	.	.	.	.	.	.	.	.
2D;\	.	.	2f# 2A;\	.	2dd 2f#;\	.	2ff# 2a 2d;\	.	2D;\	-ctus	-ctus	.	.	2A;\	-ctus	-ctus	.	.	2f#;\	-ctus	-ctus	.	.	2dd;\	-ctus	-ctus	.	.	16D;\LL	.	2F#;/	.	2d;\	.	2dd;\	.	2ff#;\	.	2dd;\	.	2ff#;\	.
.	.	.	.	.	.	.	.	.	.	.	.	.	.	.	.	.	.	.	.	.	.	.	.	.	.	.	.	.	16D\	.	.	.	.	.	.	.	.	.	.	.	.	.
.	.	.	.	.	.	.	.	.	.	.	.	.	.	.	.	.	.	.	.	.	.	.	.	.	.	.	.	.	16D\	.	.	.	.	.	.	.	.	.	.	.	.	.
.	.	.	.	.	.	.	.	.	.	.	.	.	.	.	.	.	.	.	.	.	.	.	.	.	.	.	.	.	16D\	.	.	.	.	.	.	.	.	.	.	.	.	.
.	.	.	.	.	.	.	.	.	.	.	.	.	.	.	.	.	.	.	.	.	.	.	.	.	.	.	.	.	16D\	.	.	.	.	.	.	.	.	.	.	.	.	.
.	.	.	.	.	.	.	.	.	.	.	.	.	.	.	.	.	.	.	.	.	.	.	.	.	.	.	.	.	16D\	.	.	.	.	.	.	.	.	.	.	.	.	.
.	.	.	.	.	.	.	.	.	.	.	.	.	.	.	.	.	.	.	.	.	.	.	.	.	.	.	.	.	16D\	.	.	.	.	.	.	.	.	.	.	.	.	.
.	.	.	.	.	.	.	.	.	.	.	.	.	.	.	.	.	.	.	.	.	.	.	.	.	.	.	.	.	16D\JJ	.	.	.	.	.	.	.	.	.	.	.	.	.
*	*	*	*	*	*	*	*	*	*	*	*	*	*	*	*	*	*	*	*	*	*	*	*	*	*	*	*	*	*Xtremolo	*	*	*	*	*	*	*	*	*	*	*	*	*
=2	=2	=2	=2	=2	=2	=2	=2	=2	=2	=2	=2	=2	=2	=2	=2	=2	=2	=2	=2	=2	=2	=2	=2	=2	=2	=2	=2	=2	=2	=2	=2	=2	=2	=2	=2	=2	=2	=2	=2	=2	=2	=2
!	!	!	!	!LO:MO:null:mod=!LO&colon;DY&colon;ed=brack	!	!LO:MO:null:mod=!LO&colon;DY&colon;ed=brack	!	!LO:MO:null:mod=!LO&colon;DY&colon;ed=brack	!	!	!	!	!	!	!	!	!	!	!	!	!	!	!	!	!	!	!	!	!	!	!	!	!	!	!	!	!	!	!	!	!	!
!	!	!	!	!	!	!	!LO:MO:mod=!LO&colon;TX&colon;a&colon;i&colon;t=Calando Solo	!	!	!	!	!	!	!	!	!	!	!	!	!	!	!	!	!	!	!	!	!	!	!	!	!	!	!	!	!	!	!	!	!	!	!
!	!	!LO:DY:a	!LO:TX:a:i:t=Solo:mod=	!LO:MO:null:mod=p	!LO:TX:a:i:t=Solo&colon;:mod=	!LO:MO:null:mod=p	!LO:TX:a:i:t=Calando Solo&colon;	!LO:MO:null:mod=p	!	!	!	!	!	!	!	!	!	!	!	!	!	!	!	!	!	!	!	!	!LO:TX:a:t=4.	!	!	!	!	!	!	!	!	!	!	!	!	!
8D\	.	p	(16A\LL	.	(16d/LL	.	16dd\LL	.	00r	.	.	.	.	00r	.	.	.	.	00r	.	.	.	.	00r	.	.	.	.	00r	.	00r	.	00r	.	00r	.	00r	.	00r	.	00r	.
.	.	.	16d\)	.	16f#/)	.	16ff#\JJ	.	.	.	.	.	.	.	.	.	.	.	.	.	.	.	.	.	.	.	.	.	.	.	.	.	.	.	.	.	.	.	.	.	.	.
8r	.	.	(16f#\	.	(16a/	.	4aa\	.	.	.	.	.	.	.	.	.	.	.	.	.	.	.	.	.	.	.	.	.	.	.	.	.	.	.	.	.	.	.	.	.	.	.
.	.	.	16d\JJ)	.	16f#/JJ)	.	.	.	.	.	.	.	.	.	.	.	.	.	.	.	.	.	.	.	.	.	.	.	.	.	.	.	.	.	.	.	.	.	.	.	.	.
8D\	.	.	(16A\LL	.	(16d/LL	.	.	.	.	.	.	.	.	.	.	.	.	.	.	.	.	.	.	.	.	.	.	.	.	.	.	.	.	.	.	.	.	.	.	.	.	.
.	.	.	16d\)	.	16f#/)	.	.	.	.	.	.	.	.	.	.	.	.	.	.	.	.	.	.	.	.	.	.	.	.	.	.	.	.	.	.	.	.	.	.	.	.	.
8r	.	.	(16f#\	.	(16a/	.	(32bb\LLL	.	.	.	.	.	.	.	.	.	.	.	.	.	.	.	.	.	.	.	.	.	.	.	.	.	.	.	.	.	.	.	.	.	.	.
.	.	.	.	.	.	.	32aa\	.	.	.	.	.	.	.	.	.	.	.	.	.	.	.	.	.	.	.	.	.	.	.	.	.	.	.	.	.	.	.	.	.	.	.
.	.	.	16d\JJ)	.	16f#/JJ)	.	32gg\	.	.	.	.	.	.	.	.	.	.	.	.	.	.	.	.	.	.	.	.	.	.	.	.	.	.	.	.	.	.	.	.	.	.	.
.	.	.	.	.	.	.	32ff#\JJJ)	.	.	.	.	.	.	.	.	.	.	.	.	.	.	.	.	.	.	.	.	.	.	.	.	.	.	.	.	.	.	.	.	.	.	.
8G\	6_	.	(16B\LL	.	(16e/LL	.	16ff#\LL	.	.	.	.	.	.	.	.	.	.	.	.	.	.	.	.	.	.	.	.	.	.	.	.	.	.	.	.	.	.	.	.	.	.	.
.	.	.	16e\)	.	16g/)	.	16ee\J	.	.	.	.	.	.	.	.	.	.	.	.	.	.	.	.	.	.	.	.	.	.	.	.	.	.	.	.	.	.	.	.	.	.	.
8r	.	.	(16g\	.	(16b/	.	8.ee\J	.	.	.	.	.	.	.	.	.	.	.	.	.	.	.	.	.	.	.	.	.	.	.	.	.	.	.	.	.	.	.	.	.	.	.
.	.	.	16e\JJ)	.	16g/JJ)	.	.	.	.	.	.	.	.	.	.	.	.	.	.	.	.	.	.	.	.	.	.	.	.	.	.	.	.	.	.	.	.	.	.	.	.	.
8G\	.	.	(16B\LL	.	(16e/LL	.	.	.	.	.	.	.	.	.	.	.	.	.	.	.	.	.	.	.	.	.	.	.	.	.	.	.	.	.	.	.	.	.	.	.	.	.
.	.	.	16e\)	.	16g/)	.	32dd\LLL	.	.	.	.	.	.	.	.	.	.	.	.	.	.	.	.	.	.	.	.	.	.	.	.	.	.	.	.	.	.	.	.	.	.	.
.	.	.	.	.	.	.	32ee\JJJ	.	.	.	.	.	.	.	.	.	.	.	.	.	.	.	.	.	.	.	.	.	.	.	.	.	.	.	.	.	.	.	.	.	.	.
8r	.	.	(16g\	.	(16b/	.	(32gg\LLL	.	.	.	.	.	.	.	.	.	.	.	.	.	.	.	.	.	.	.	.	.	.	.	.	.	.	.	.	.	.	.	.	.	.	.
.	.	.	.	.	.	.	32ff#\	.	.	.	.	.	.	.	.	.	.	.	.	.	.	.	.	.	.	.	.	.	.	.	.	.	.	.	.	.	.	.	.	.	.	.
.	.	.	16e\JJ)	.	16g/JJ)	.	32ee\	.	.	.	.	.	.	.	.	.	.	.	.	.	.	.	.	.	.	.	.	.	.	.	.	.	.	.	.	.	.	.	.	.	.	.
.	.	.	.	.	.	.	32dd\JJJ)	.	.	.	.	.	.	.	.	.	.	.	.	.	.	.	.	.	.	.	.	.	.	.	.	.	.	.	.	.	.	.	.	.	.	.
=3	=3	=3	=3	=3	=3	=3	=3	=3	=3	=3	=3	=3	=3	=3	=3	=3	=3	=3	=3	=3	=3	=3	=3	=3	=3	=3	=3	=3	=3	=3	=3	=3	=3	=3	=3	=3	=3	=3	=3	=3	=3	=3
8A\	x	.	(16A\LL	.	(16c#/LL	.	(32dd\LLL	.	.	.	.	.	.	.	.	.	.	.	.	.	.	.	.	.	.	.	.	.	.	.	.	.	.	.	.	.	.	.	.	.	.	.
.	.	.	.	.	.	.	32cc#\	.	.	.	.	.	.	.	.	.	.	.	.	.	.	.	.	.	.	.	.	.	.	.	.	.	.	.	.	.	.	.	.	.	.	.
.	.	.	16c#\)	.	16e/)	.	32b\	.	.	.	.	.	.	.	.	.	.	.	.	.	.	.	.	.	.	.	.	.	.	.	.	.	.	.	.	.	.	.	.	.	.	.
.	.	.	.	.	.	.	32cc#\JJ)	.	.	.	.	.	.	.	.	.	.	.	.	.	.	.	.	.	.	.	.	.	.	.	.	.	.	.	.	.	.	.	.	.	.	.
8r	.	.	(16e\	.	(16g/	.	8.cc#\J	.	.	.	.	.	.	.	.	.	.	.	.	.	.	.	.	.	.	.	.	.	.	.	.	.	.	.	.	.	.	.	.	.	.	.
.	.	.	16c#\JJ)	.	16e/JJ)	.	.	.	.	.	.	.	.	.	.	.	.	.	.	.	.	.	.	.	.	.	.	.	.	.	.	.	.	.	.	.	.	.	.	.	.	.
8A\	.	.	(16A\LL	.	(16c#/LL	.	.	.	.	.	.	.	.	.	.	.	.	.	.	.	.	.	.	.	.	.	.	.	.	.	.	.	.	.	.	.	.	.	.	.	.	.
.	.	.	16c#\)	.	16e/)	.	(32dd\LLL	.	.	.	.	.	.	.	.	.	.	.	.	.	.	.	.	.	.	.	.	.	.	.	.	.	.	.	.	.	.	.	.	.	.	.
.	.	.	.	.	.	.	32ee\	.	.	.	.	.	.	.	.	.	.	.	.	.	.	.	.	.	.	.	.	.	.	.	.	.	.	.	.	.	.	.	.	.	.	.
8r	.	.	(16e\	.	(16g/	.	32ff#\	.	.	.	.	.	.	.	.	.	.	.	.	.	.	.	.	.	.	.	.	.	.	.	.	.	.	.	.	.	.	.	.	.	.	.
.	.	.	.	.	.	.	32gg\	.	.	.	.	.	.	.	.	.	.	.	.	.	.	.	.	.	.	.	.	.	.	.	.	.	.	.	.	.	.	.	.	.	.	.
.	.	.	16c#\JJ)	.	16e/JJ)	.	32aa\	.	.	.	.	.	.	.	.	.	.	.	.	.	.	.	.	.	.	.	.	.	.	.	.	.	.	.	.	.	.	.	.	.	.	.
.	.	.	.	.	.	.	32gg\JJJ)	.	.	.	.	.	.	.	.	.	.	.	.	.	.	.	.	.	.	.	.	.	.	.	.	.	.	.	.	.	.	.	.	.	.	.
8D\	.	.	(16A\LL	.	(16d/LL	.	16gg\LL	.	.	.	.	.	.	.	.	.	.	.	.	.	.	.	.	.	.	.	.	.	.	.	.	.	.	.	.	.	.	.	.	.	.	.
.	.	.	16d\)	.	16f#/)	.	16ff#\J	.	.	.	.	.	.	.	.	.	.	.	.	.	.	.	.	.	.	.	.	.	.	.	.	.	.	.	.	.	.	.	.	.	.	.
8r	.	.	(16f#\	.	(16a/	.	8ff#\J	.	.	.	.	.	.	.	.	.	.	.	.	.	.	.	.	.	.	.	.	.	.	.	.	.	.	.	.	.	.	.	.	.	.	.
.	.	.	16d\JJ)	.	16f#/JJ)	.	.	.	.	.	.	.	.	.	.	.	.	.	.	.	.	.	.	.	.	.	.	.	.	.	.	.	.	.	.	.	.	.	.	.	.	.
8D\	.	.	(16A\LL	.	(16d/LL	.	16r	.	.	.	.	.	.	.	.	.	.	.	.	.	.	.	.	.	.	.	.	.	.	.	.	.	.	.	.	.	.	.	.	.	.	.
.	.	.	16d\)	.	16f#/)	.	32ff#\LLL	.	.	.	.	.	.	.	.	.	.	.	.	.	.	.	.	.	.	.	.	.	.	.	.	.	.	.	.	.	.	.	.	.	.	.
.	.	.	.	.	.	.	32aa\JJJ	.	.	.	.	.	.	.	.	.	.	.	.	.	.	.	.	.	.	.	.	.	.	.	.	.	.	.	.	.	.	.	.	.	.	.
8r	.	.	(16f#\	.	(16a/	.	(32gg\LLL	.	.	.	.	.	.	.	.	.	.	.	.	.	.	.	.	.	.	.	.	.	.	.	.	.	.	.	.	.	.	.	.	.	.	.
.	.	.	.	.	.	.	32ff#\	.	.	.	.	.	.	.	.	.	.	.	.	.	.	.	.	.	.	.	.	.	.	.	.	.	.	.	.	.	.	.	.	.	.	.
.	.	.	16d\JJ)	.	16f#/JJ)	.	32ee\	.	.	.	.	.	.	.	.	.	.	.	.	.	.	.	.	.	.	.	.	.	.	.	.	.	.	.	.	.	.	.	.	.	.	.
.	.	.	.	.	.	.	32dd\JJJ)	.	.	.	.	.	.	.	.	.	.	.	.	.	.	.	.	.	.	.	.	.	.	.	.	.	.	.	.	.	.	.	.	.	.	.
!	!	!	!LO:LB:g=original	!	!	!	!LO:LB:g=original	!	!	!	!	!	!	!	!	!	!	!	!	!	!	!	!	!	!	!	!	!	!	!	!	!	!	!	!	!	!	!	!	!	!	!
=4	=4	=4	=4	=4	=4	=4	=4	=4	=4	=4	=4	=4	=4	=4	=4	=4	=4	=4	=4	=4	=4	=4	=4	=4	=4	=4	=4	=4	=4	=4	=4	=4	=4	=4	=4	=4	=4	=4	=4	=4	=4	=4
8A\	.	.	(16A\LL	.	(16c#/LL	.	16dd\LL	.	.	.	.	.	.	.	.	.	.	.	.	.	.	.	.	.	.	.	.	.	.	.	.	.	.	.	.	.	.	.	.	.	.	.
.	.	.	16c#\)	.	16e/)	.	16cc#\JJ	.	.	.	.	.	.	.	.	.	.	.	.	.	.	.	.	.	.	.	.	.	.	.	.	.	.	.	.	.	.	.	.	.	.	.
8r	.	.	(16e\	.	(16g/	.	4cc#\	.	.	.	.	.	.	.	.	.	.	.	.	.	.	.	.	.	.	.	.	.	.	.	.	.	.	.	.	.	.	.	.	.	.	.
.	.	.	16c#\JJ)	.	16e/JJ)	.	.	.	.	.	.	.	.	.	.	.	.	.	.	.	.	.	.	.	.	.	.	.	.	.	.	.	.	.	.	.	.	.	.	.	.	.
!	!	!	!	!	!LO:LB:g=original	!	!	!	!	!	!	!	!	!	!	!	!	!	!	!	!	!	!	!	!	!	!	!	!	!	!	!	!	!	!	!	!	!	!	!	!	!
8AA/	.	.	(16A\LL	.	(16c#/LL	.	.	.	.	.	.	.	.	.	.	.	.	.	.	.	.	.	.	.	.	.	.	.	.	.	.	.	.	.	.	.	.	.	.	.	.	.
.	.	.	16c#\)	.	16e/)	.	.	.	.	.	.	.	.	.	.	.	.	.	.	.	.	.	.	.	.	.	.	.	.	.	.	.	.	.	.	.	.	.	.	.	.	.
8r	.	.	(16e\	.	(16g/	.	16ee\LL	.	.	.	.	.	.	.	.	.	.	.	.	.	.	.	.	.	.	.	.	.	.	.	.	.	.	.	.	.	.	.	.	.	.	.
.	.	.	16c#\JJ)	.	16e/JJ)	.	16gg\JJ	.	.	.	.	.	.	.	.	.	.	.	.	.	.	.	.	.	.	.	.	.	.	.	.	.	.	.	.	.	.	.	.	.	.	.
8D\	.	.	(16A\LL	.	(16d/LL	.	(32gg\LLL	.	.	.	.	.	.	.	.	.	.	.	.	.	.	.	.	.	.	.	.	.	.	.	.	.	.	.	.	.	.	.	.	.	.	.
.	.	.	.	.	.	.	32ff#\	.	.	.	.	.	.	.	.	.	.	.	.	.	.	.	.	.	.	.	.	.	.	.	.	.	.	.	.	.	.	.	.	.	.	.
.	.	.	16d\)	.	16f#/)	.	32ee\	.	.	.	.	.	.	.	.	.	.	.	.	.	.	.	.	.	.	.	.	.	.	.	.	.	.	.	.	.	.	.	.	.	.	.
.	.	.	.	.	.	.	32ff#\JJ)	.	.	.	.	.	.	.	.	.	.	.	.	.	.	.	.	.	.	.	.	.	.	.	.	.	.	.	.	.	.	.	.	.	.	.
8r	.	.	(16f#\	.	(16a/	.	8.ff#\J	.	.	.	.	.	.	.	.	.	.	.	.	.	.	.	.	.	.	.	.	.	.	.	.	.	.	.	.	.	.	.	.	.	.	.
.	.	.	16d\JJ)	.	16f#/JJ)	.	.	.	.	.	.	.	.	.	.	.	.	.	.	.	.	.	.	.	.	.	.	.	.	.	.	.	.	.	.	.	.	.	.	.	.	.
8D\	.	.	(16A\LL	.	(16d/LL	.	.	.	.	.	.	.	.	.	.	.	.	.	.	.	.	.	.	.	.	.	.	.	.	.	.	.	.	.	.	.	.	.	.	.	.	.
.	.	.	16d\)	.	16f#/)	.	(32ee\LLL	.	.	.	.	.	.	.	.	.	.	.	.	.	.	.	.	.	.	.	.	.	.	.	.	.	.	.	.	.	.	.	.	.	.	.
.	.	.	.	.	.	.	32ff#\	.	.	.	.	.	.	.	.	.	.	.	.	.	.	.	.	.	.	.	.	.	.	.	.	.	.	.	.	.	.	.	.	.	.	.
8r	.	.	(16f#\	.	(16a/	.	32gg\	.	.	.	.	.	.	.	.	.	.	.	.	.	.	.	.	.	.	.	.	.	.	.	.	.	.	.	.	.	.	.	.	.	.	.
.	.	.	.	.	.	.	32ff#\	.	.	.	.	.	.	.	.	.	.	.	.	.	.	.	.	.	.	.	.	.	.	.	.	.	.	.	.	.	.	.	.	.	.	.
.	.	.	16d\JJ)	.	16f#/JJ)	.	32bb\	.	.	.	.	.	.	.	.	.	.	.	.	.	.	.	.	.	.	.	.	.	.	.	.	.	.	.	.	.	.	.	.	.	.	.
.	.	.	.	.	.	.	32aa\JJJ)	.	.	.	.	.	.	.	.	.	.	.	.	.	.	.	.	.	.	.	.	.	.	.	.	.	.	.	.	.	.	.	.	.	.	.
=5	=5	=5	=5	=5	=5	=5	=5	=5	=5	=5	=5	=5	=5	=5	=5	=5	=5	=5	=5	=5	=5	=5	=5	=5	=5	=5	=5	=5	=5	=5	=5	=5	=5	=5	=5	=5	=5	=5	=5	=5	=5	=5
8G\	6	.	(16B\LL	.	(16e/LL	.	(32gg\LLL	.	.	.	.	.	.	.	.	.	.	.	.	.	.	.	.	.	.	.	.	.	.	.	.	.	.	.	.	.	.	.	.	.	.	.
.	.	.	.	.	.	.	32ff#\	.	.	.	.	.	.	.	.	.	.	.	.	.	.	.	.	.	.	.	.	.	.	.	.	.	.	.	.	.	.	.	.	.	.	.
.	.	.	16e\)	.	16g/)	.	32ee\	.	.	.	.	.	.	.	.	.	.	.	.	.	.	.	.	.	.	.	.	.	.	.	.	.	.	.	.	.	.	.	.	.	.	.
.	.	.	.	.	.	.	32dd#X\JJJ)	.	.	.	.	.	.	.	.	.	.	.	.	.	.	.	.	.	.	.	.	.	.	.	.	.	.	.	.	.	.	.	.	.	.	.
8r	.	.	(16g\	.	(16b/	.	(32ee\LLL	.	.	.	.	.	.	.	.	.	.	.	.	.	.	.	.	.	.	.	.	.	.	.	.	.	.	.	.	.	.	.	.	.	.	.
.	.	.	.	.	.	.	32ff#\	.	.	.	.	.	.	.	.	.	.	.	.	.	.	.	.	.	.	.	.	.	.	.	.	.	.	.	.	.	.	.	.	.	.	.
.	.	.	16e\JJ)	.	16g/JJ)	.	32gg\	.	.	.	.	.	.	.	.	.	.	.	.	.	.	.	.	.	.	.	.	.	.	.	.	.	.	.	.	.	.	.	.	.	.	.
.	.	.	.	.	.	.	32ee\JJJ)	.	.	.	.	.	.	.	.	.	.	.	.	.	.	.	.	.	.	.	.	.	.	.	.	.	.	.	.	.	.	.	.	.	.	.
!LO:TX:t=P:problem=mixed beam	!	!	!	!	!	!	!	!	!	!	!	!	!	!	!	!	!	!	!	!	!	!	!	!	!	!	!	!	!	!	!	!	!	!	!	!	!	!	!	!	!	!
8A\L	4	.	(16f#\LL	.	(16a/LL	.	8ddn\L	.	.	.	.	.	.	.	.	.	.	.	.	.	.	.	.	.	.	.	.	.	.	.	.	.	.	.	.	.	.	.	.	.	.	.
.	.	.	16d\)	.	16f#/)	.	.	.	.	.	.	.	.	.	.	.	.	.	.	.	.	.	.	.	.	.	.	.	.	.	.	.	.	.	.	.	.	.	.	.	.	.
8AA/J	3	.	(16e\	.	(16g/	.	8eeT\J	.	.	.	.	.	.	.	.	.	.	.	.	.	.	.	.	.	.	.	.	.	.	.	.	.	.	.	.	.	.	.	.	.	.	.
.	.	.	16c#\JJ)	.	16e/JJ)	.	.	.	.	.	.	.	.	.	.	.	.	.	.	.	.	.	.	.	.	.	.	.	.	.	.	.	.	.	.	.	.	.	.	.	.	.
!LO:LB:g=original	!	!	!	!	!	!	!	!	!	!	!	!	!	!	!	!	!	!	!	!	!	!	!	!	!	!	!	!	!	!	!	!	!	!	!	!	!	!	!	!	!	!
8D\	.	.	8d\	.	8f#/	.	32dd\LLL	.	.	.	.	.	.	.	.	.	.	.	.	.	.	.	.	.	.	.	.	.	.	.	.	.	.	.	.	.	.	.	.	.	.	.
.	.	.	.	.	.	.	(32a\	.	.	.	.	.	.	.	.	.	.	.	.	.	.	.	.	.	.	.	.	.	.	.	.	.	.	.	.	.	.	.	.	.	.	.
.	.	.	.	.	.	.	32a#X\	.	.	.	.	.	.	.	.	.	.	.	.	.	.	.	.	.	.	.	.	.	.	.	.	.	.	.	.	.	.	.	.	.	.	.
.	.	.	.	.	.	.	32b\JJJ	.	.	.	.	.	.	.	.	.	.	.	.	.	.	.	.	.	.	.	.	.	.	.	.	.	.	.	.	.	.	.	.	.	.	.
8r	.	.	8r	.	8r	.	32b#X\LLL	.	.	.	.	.	.	.	.	.	.	.	.	.	.	.	.	.	.	.	.	.	.	.	.	.	.	.	.	.	.	.	.	.	.	.
.	.	.	.	.	.	.	32cc#\	.	.	.	.	.	.	.	.	.	.	.	.	.	.	.	.	.	.	.	.	.	.	.	.	.	.	.	.	.	.	.	.	.	.	.
.	.	.	.	.	.	.	32dd\	.	.	.	.	.	.	.	.	.	.	.	.	.	.	.	.	.	.	.	.	.	.	.	.	.	.	.	.	.	.	.	.	.	.	.
.	.	.	.	.	.	.	32dd#X\JJJ	.	.	.	.	.	.	.	.	.	.	.	.	.	.	.	.	.	.	.	.	.	.	.	.	.	.	.	.	.	.	.	.	.	.	.
4r	.	.	4r	.	4r	.	32ee\LLL	.	.	.	.	.	.	.	.	.	.	.	.	.	.	.	.	.	.	.	.	.	.	.	.	.	.	.	.	.	.	.	.	.	.	.
.	.	.	.	.	.	.	32ee#X\	.	.	.	.	.	.	.	.	.	.	.	.	.	.	.	.	.	.	.	.	.	.	.	.	.	.	.	.	.	.	.	.	.	.	.
.	.	.	.	.	.	.	32ff#\	.	.	.	.	.	.	.	.	.	.	.	.	.	.	.	.	.	.	.	.	.	.	.	.	.	.	.	.	.	.	.	.	.	.	.
.	.	.	.	.	.	.	32gg\JJJ	.	.	.	.	.	.	.	.	.	.	.	.	.	.	.	.	.	.	.	.	.	.	.	.	.	.	.	.	.	.	.	.	.	.	.
.	.	.	.	.	.	.	32gg#X\LLL	.	.	.	.	.	.	.	.	.	.	.	.	.	.	.	.	.	.	.	.	.	.	.	.	.	.	.	.	.	.	.	.	.	.	.
.	.	.	.	.	.	.	32aa\	.	.	.	.	.	.	.	.	.	.	.	.	.	.	.	.	.	.	.	.	.	.	.	.	.	.	.	.	.	.	.	.	.	.	.
.	.	.	.	.	.	.	32bb\	.	.	.	.	.	.	.	.	.	.	.	.	.	.	.	.	.	.	.	.	.	.	.	.	.	.	.	.	.	.	.	.	.	.	.
.	.	.	.	.	.	.	32aa\JJJ)	.	.	.	.	.	.	.	.	.	.	.	.	.	.	.	.	.	.	.	.	.	.	.	.	.	.	.	.	.	.	.	.	.	.	.
=6	=6	=6	=6	=6	=6	=6	=6	=6	=6	=6	=6	=6	=6	=6	=6	=6	=6	=6	=6	=6	=6	=6	=6	=6	=6	=6	=6	=6	=6	=6	=6	=6	=6	=6	=6	=6	=6	=6	=6	=6	=6	=6
!	!	!	!	!	!	!	!LO:SIC:v:s=8qgg#/	!	!	!	!	!	!	!	!	!	!	!	!	!	!	!	!	!	!	!	!	!	!	!	!	!	!	!	!	!	!	!	!	!	!	!
.	.	.	.	.	.	.	8qgg/	.	.	.	.	.	.	.	.	.	.	.	.	.	.	.	.	.	.	.	.	.	.	.	.	.	.	.	.	.	.	.	.	.	.	.
*	*	*	*	*	*	*	*	*	*	*	*	*	*	*	*	*	*	*	*	*	*	*	*	*	*	*	*	*	*tremolo	*	*	*	*	*	*	*	*	*	*	*	*	*
!	!	!	!	!	!	!	!	!	!	!	!	!	!	!	!	!	!	!	!	!	!	!	!	!	!	!	!	!	!LO:TX:t=P:global:problem=falista linia nad tremolo	!LO:DY:b:t=pp.	!	!	!	!	!	!	!	!	!	!	!	!
8D\	.	.	(16A\LL	.	(16d/LL	.	8aa\	.	4D\	San-	San-	.	.	4A\	San-	San-	.	.	4f#\	San-	San-	.	.	4dd\	San-	San-	.	.	16D\LL	pp	4d\	.	4f#\	.	4dd\	.	4ff#\	.	4dd\	.	4ff#\	.
.	.	.	16d\)	.	16f#/)	.	.	.	.	.	.	.	.	.	.	.	.	.	.	.	.	.	.	.	.	.	.	.	16D\	.	.	.	.	.	.	.	.	.	.	.	.	.
8r	.	.	(16f#\	.	(16a/	.	4aa\	.	.	.	.	.	.	.	.	.	.	.	.	.	.	.	.	.	.	.	.	.	16D\	.	.	.	.	.	.	.	.	.	.	.	.	.
.	.	.	16d\JJ)	.	16f#/JJ)	.	.	.	.	.	.	.	.	.	.	.	.	.	.	.	.	.	.	.	.	.	.	.	16D\JJ	.	.	.	.	.	.	.	.	.	.	.	.	.
8D\	.	.	(16A\LL	.	(16d/LL	.	.	.	4D\	-ctus	-ctus	.	.	4A\	-ctus	-ctus	.	.	4f#\	-ctus	-ctus	.	.	4dd\	-ctus	-ctus	.	.	16D\LL	.	4d\	.	4f#\	.	4dd\	.	4ff#\	.	4dd\	.	4ff#\	.
.	.	.	16d\)	.	16f#/)	.	.	.	.	.	.	.	.	.	.	.	.	.	.	.	.	.	.	.	.	.	.	.	16D\	.	.	.	.	.	.	.	.	.	.	.	.	.
8r	.	.	(16f#\	.	(16a/	.	(32ggn\LLL	.	.	.	.	.	.	.	.	.	.	.	.	.	.	.	.	.	.	.	.	.	16D\	.	.	.	.	.	.	.	.	.	.	.	.	.
.	.	.	.	.	.	.	32ff#\	.	.	.	.	.	.	.	.	.	.	.	.	.	.	.	.	.	.	.	.	.	.	.	.	.	.	.	.	.	.	.	.	.	.	.
.	.	.	16d\JJ)	.	16f#/JJ)	.	32ee\	.	.	.	.	.	.	.	.	.	.	.	.	.	.	.	.	.	.	.	.	.	16D\JJ	.	.	.	.	.	.	.	.	.	.	.	.	.
.	.	.	.	.	.	.	32dd\JJJ)	.	.	.	.	.	.	.	.	.	.	.	.	.	.	.	.	.	.	.	.	.	.	.	.	.	.	.	.	.	.	.	.	.	.	.
!	!	!	!	!	!	!	!LO:LB:g=original	!	!	!	!	!	!	!	!	!	!	!	!	!	!	!	!	!	!	!	!	!	!	!	!	!	!	!	!	!	!	!	!	!	!	!
8G\	6	.	(16B\LL	.	(16e/LL	.	16dd#X\LL	.	4G\	De-	De-	.	.	4B\	De-	De-	.	.	4g\	De-	De-	.	.	4ee\	De-	De-	.	.	16AA/LL	.	4e\	.	4g\	.	4ee\	.	4gg\	.	4ee\	.	4gg\	.
.	.	.	16e\)	.	16g/)	.	16ee\J	.	.	.	.	.	.	.	.	.	.	.	.	.	.	.	.	.	.	.	.	.	16AA/	.	.	.	.	.	.	.	.	.	.	.	.	.
8r	.	.	(16g\	.	(16b/	.	8.ee\J	.	.	.	.	.	.	.	.	.	.	.	.	.	.	.	.	.	.	.	.	.	16AA/	.	.	.	.	.	.	.	.	.	.	.	.	.
.	.	.	16e\JJ)	.	16g/JJ)	.	.	.	.	.	.	.	.	.	.	.	.	.	.	.	.	.	.	.	.	.	.	.	16AA/JJ	.	.	.	.	.	.	.	.	.	.	.	.	.
8A\	.	.	(16A\LL	.	(16c#/LL	.	.	.	4A\	-us	-us	.	.	4A\	-us	-us	.	.	4e\	-us	-us	.	.	4cc#\	-us	-us	.	.	16AA/LL	.	4A/	.	4e\	.	4cc#\	.	4ee\	.	4cc#\	.	4ee\	.
.	.	.	16c#\)	.	16e/)	.	(32aa\LLL	.	.	.	.	.	.	.	.	.	.	.	.	.	.	.	.	.	.	.	.	.	16AA/	.	.	.	.	.	.	.	.	.	.	.	.	.
.	.	.	.	.	.	.	32gg\	.	.	.	.	.	.	.	.	.	.	.	.	.	.	.	.	.	.	.	.	.	.	.	.	.	.	.	.	.	.	.	.	.	.	.
8r	.	.	(16e\	.	(16g/	.	32ff#\	.	.	.	.	.	.	.	.	.	.	.	.	.	.	.	.	.	.	.	.	.	16AA/	.	.	.	.	.	.	.	.	.	.	.	.	.
.	.	.	.	.	.	.	32ee\	.	.	.	.	.	.	.	.	.	.	.	.	.	.	.	.	.	.	.	.	.	.	.	.	.	.	.	.	.	.	.	.	.	.	.
.	.	.	16c#\JJ)	.	16e/JJ)	.	32ddn\	.	.	.	.	.	.	.	.	.	.	.	.	.	.	.	.	.	.	.	.	.	16AA/JJ	.	.	.	.	.	.	.	.	.	.	.	.	.
.	.	.	.	.	.	.	32ee\JJJ)	.	.	.	.	.	.	.	.	.	.	.	.	.	.	.	.	.	.	.	.	.	.	.	.	.	.	.	.	.	.	.	.	.	.	.
=7	=7	=7	=7	=7	=7	=7	=7	=7	=7	=7	=7	=7	=7	=7	=7	=7	=7	=7	=7	=7	=7	=7	=7	=7	=7	=7	=7	=7	=7	=7	=7	=7	=7	=7	=7	=7	=7	=7	=7	=7	=7	=7
8D\	.	.	(16A\LL	.	(16d/LL	.	16ff#\LL	.	4D\	San-	San-	.	.	4A\	San-	San-	.	.	4f#\	San-	San-	.	.	4dd\	San-	San-	.	.	16D\LL	.	4d\	.	4f#\	.	4dd\	.	4ff#\	.	4dd\	.	4ff#\	.
.	.	.	16d\)	.	16f#/)	.	16aa\JJ	.	.	.	.	.	.	.	.	.	.	.	.	.	.	.	.	.	.	.	.	.	16D\	.	.	.	.	.	.	.	.	.	.	.	.	.
8r	.	.	(16f#\	.	(16a/	.	4aa\	.	.	.	.	.	.	.	.	.	.	.	.	.	.	.	.	.	.	.	.	.	16D\	.	.	.	.	.	.	.	.	.	.	.	.	.
.	.	.	16d\JJ)	.	16f#/JJ)	.	.	.	.	.	.	.	.	.	.	.	.	.	.	.	.	.	.	.	.	.	.	.	16D\JJ	.	.	.	.	.	.	.	.	.	.	.	.	.
!	!	!	!LO:LB:g=original	!	!	!	!	!	!	!	!	!	!	!	!	!	!	!	!	!	!	!	!	!	!	!	!	!	!	!	!	!	!	!	!	!	!	!	!	!	!	!
8D\	.	.	(16A\LL	.	(16d/LL	.	.	.	4D\	-ctus	-ctus	.	.	4A\	-ctus	-ctus	.	.	4f#\	-ctus	-ctus	.	.	4dd\	-ctus	-ctus	.	.	16D\LL	.	4d\	.	4f#\	.	4dd\	.	4ff#\	.	4dd\	.	4ff#\	.
.	.	.	16d\)	.	16f#/)	.	.	.	.	.	.	.	.	.	.	.	.	.	.	.	.	.	.	.	.	.	.	.	16D\	.	.	.	.	.	.	.	.	.	.	.	.	.
8r	.	.	(16f#\	.	(16a/	.	(32gg\LLL	.	.	.	.	.	.	.	.	.	.	.	.	.	.	.	.	.	.	.	.	.	16D\	.	.	.	.	.	.	.	.	.	.	.	.	.
.	.	.	.	.	.	.	32ff#\	.	.	.	.	.	.	.	.	.	.	.	.	.	.	.	.	.	.	.	.	.	.	.	.	.	.	.	.	.	.	.	.	.	.	.
.	.	.	16d\JJ)	.	16f#/JJ)	.	32ee\	.	.	.	.	.	.	.	.	.	.	.	.	.	.	.	.	.	.	.	.	.	16D\JJ	.	.	.	.	.	.	.	.	.	.	.	.	.
.	.	.	.	.	.	.	32dd\JJJ)	.	.	.	.	.	.	.	.	.	.	.	.	.	.	.	.	.	.	.	.	.	.	.	.	.	.	.	.	.	.	.	.	.	.	.
!	!	!	!	!	!LO:LB:g=original	!	!	!	!	!	!	!	!	!	!	!	!	!	!	!	!	!	!	!	!	!	!	!	!	!	!	!	!	!	!	!	!	!	!	!	!	!
8G\	6	.	(16B\LL	.	(16e/LL	.	16dd#X\LL	.	4G\	Do-	Do-	.	.	4B\	do-	Do-	.	.	4g\	do-	Do-	.	.	4ee\	Do-	Do-	.	.	16AA/LL	.	4e\	.	4g\	.	4ee\	.	4gg\	.	4ee\	.	4gg\	.
.	.	.	16e\)	.	16g/)	.	16ee\J	.	.	.	.	.	.	.	.	.	.	.	.	.	.	.	.	.	.	.	.	.	16AA/	.	.	.	.	.	.	.	.	.	.	.	.	.
8r	.	.	(16g\	.	(16b/	.	8.ee\J	.	.	.	.	.	.	.	.	.	.	.	.	.	.	.	.	.	.	.	.	.	16AA/	.	.	.	.	.	.	.	.	.	.	.	.	.
.	.	.	16e\JJ)	.	16g/JJ)	.	.	.	.	.	.	.	.	.	.	.	.	.	.	.	.	.	.	.	.	.	.	.	16AA/JJ	.	.	.	.	.	.	.	.	.	.	.	.	.
8A\	.	.	(16A\LL	.	(16c#/LL	.	.	.	4A\	-mi-	-mi-	.	.	4A\	-mi-	-mi-	.	.	4e\	-mi-	-mi-	.	.	4cc#\	-mi-	-mi-	.	.	16AA/LL	.	4A/	.	4e\	.	4cc#\	.	4ee\	.	4cc#\	.	4ee\	.
.	.	.	16c#\)	.	16e/)	.	(32aa\LLL	.	.	.	.	.	.	.	.	.	.	.	.	.	.	.	.	.	.	.	.	.	16AA/	.	.	.	.	.	.	.	.	.	.	.	.	.
.	.	.	.	.	.	.	32gg\	.	.	.	.	.	.	.	.	.	.	.	.	.	.	.	.	.	.	.	.	.	.	.	.	.	.	.	.	.	.	.	.	.	.	.
8r	.	.	(16e\	.	(16g/	.	32ff#\	.	.	.	.	.	.	.	.	.	.	.	.	.	.	.	.	.	.	.	.	.	16AA/	.	.	.	.	.	.	.	.	.	.	.	.	.
.	.	.	.	.	.	.	32ee\	.	.	.	.	.	.	.	.	.	.	.	.	.	.	.	.	.	.	.	.	.	.	.	.	.	.	.	.	.	.	.	.	.	.	.
.	.	.	16c#\JJ)	.	16e/JJ)	.	32ddn\	.	.	.	.	.	.	.	.	.	.	.	.	.	.	.	.	.	.	.	.	.	16AA/JJ	.	.	.	.	.	.	.	.	.	.	.	.	.
.	.	.	.	.	.	.	32ee\JJJ)	.	.	.	.	.	.	.	.	.	.	.	.	.	.	.	.	.	.	.	.	.	.	.	.	.	.	.	.	.	.	.	.	.	.	.
=8	=8	=8	=8	=8	=8	=8	=8	=8	=8	=8	=8	=8	=8	=8	=8	=8	=8	=8	=8	=8	=8	=8	=8	=8	=8	=8	=8	=8	=8	=8	=8	=8	=8	=8	=8	=8	=8	=8	=8	=8	=8	=8
8D\	.	.	(16A\LL	.	(16d/LL	.	16ff#\LL	.	4D\	-nus	-nus	.	.	4A\	-nus	-nus	.	.	4f#\	-nus	-nus	.	.	4dd\	-nus	-nus	.	.	16D\LL	.	4d\	.	4f#\	.	4dd\	.	4ff#\	.	4dd\	.	4ff#\	.
.	.	.	16d\)	.	16f#/)	.	16aa\JJ	.	.	.	.	.	.	.	.	.	.	.	.	.	.	.	.	.	.	.	.	.	16D\	.	.	.	.	.	.	.	.	.	.	.	.	.
8r	.	.	(16f#\	.	(16a/	.	4aa\	.	.	.	.	.	.	.	.	.	.	.	.	.	.	.	.	.	.	.	.	.	16D\	.	.	.	.	.	.	.	.	.	.	.	.	.
.	.	.	16d\JJ)	.	16f#/JJ)	.	.	.	.	.	.	.	.	.	.	.	.	.	.	.	.	.	.	.	.	.	.	.	16D\JJ	.	.	.	.	.	.	.	.	.	.	.	.	.
8D\	.	.	(16A\LL	.	(16d/LL	.	.	.	(4d\	De-	De-	.	.	(4d\	De-	De-	.	.	2a\	De-	De-	.	.	(4ff#\	De-	De-	.	.	16D\LL	.	4f#\	.	4a\	.	4ff#\	.	4aa\	.	4ff#\	.	4aa\	.
.	.	.	16d\)	.	16f#/)	.	.	.	.	.	.	.	.	.	.	.	.	.	.	.	.	.	.	.	.	.	.	.	16D\	.	.	.	.	.	.	.	.	.	.	.	.	.
8r	.	.	(16f#\	.	(16a/	.	(32bb\LLL	.	.	.	.	.	.	.	.	.	.	.	.	.	.	.	.	.	.	.	.	.	16D\	.	.	.	.	.	.	.	.	.	.	.	.	.
.	.	.	.	.	.	.	32aa\	.	.	.	.	.	.	.	.	.	.	.	.	.	.	.	.	.	.	.	.	.	.	.	.	.	.	.	.	.	.	.	.	.	.	.
.	.	.	16d\JJ)	.	16f#/JJ)	.	32gg\	.	.	.	.	.	.	.	.	.	.	.	.	.	.	.	.	.	.	.	.	.	16D\JJ	.	.	.	.	.	.	.	.	.	.	.	.	.
.	.	.	.	.	.	.	32ff#\JJJ)	.	.	.	.	.	.	.	.	.	.	.	.	.	.	.	.	.	.	.	.	.	.	.	.	.	.	.	.	.	.	.	.	.	.	.
8C#/	6_	.	(16A\LL	.	(16c#/LL	.	(32ff#\LLL	.	4c#\)	.	.	.	.	4e\)	.	.	.	.	.	.	.	.	.	4ee\)	.	.	.	.	16AA/LL	.	4e\	.	4a\	.	4ee\	.	4aa\	.	4ee\	.	2aa\	.
.	.	.	.	.	.	.	32ee\	.	.	.	.	.	.	.	.	.	.	.	.	.	.	.	.	.	.	.	.	.	.	.	.	.	.	.	.	.	.	.	.	.	.	.
.	.	.	16c#\)	.	16e/)	.	32dd\	.	.	.	.	.	.	.	.	.	.	.	.	.	.	.	.	.	.	.	.	.	16AA/	.	.	.	.	.	.	.	.	.	.	.	.	.
.	.	.	.	.	.	.	32ee\JJ	.	.	.	.	.	.	.	.	.	.	.	.	.	.	.	.	.	.	.	.	.	.	.	.	.	.	.	.	.	.	.	.	.	.	.
8r	.	.	(16e\	.	(16a/	.	8.aa\J)	.	.	.	.	.	.	.	.	.	.	.	.	.	.	.	.	.	.	.	.	.	16AA/	.	.	.	.	.	.	.	.	.	.	.	.	.
.	.	.	16c#\JJ)	.	16e/JJ)	.	.	.	.	.	.	.	.	.	.	.	.	.	.	.	.	.	.	.	.	.	.	.	16AA/JJ	.	.	.	.	.	.	.	.	.	.	.	.	.
8C#/	.	.	(16A\LL	.	(16c#/LL	.	.	.	4c#\	-us	-us	.	.	4e\	-us	-us	.	.	4a\	-us	-us	.	.	4ee\	-us	-us	.	.	16AA/LL	.	4A/	.	4a\	.	4ee\	.	4aa\	.	4ee\	.	.	.
.	.	.	16c#\)	.	16e/)	.	(32bb\LLL	.	.	.	.	.	.	.	.	.	.	.	.	.	.	.	.	.	.	.	.	.	16AA/	.	.	.	.	.	.	.	.	.	.	.	.	.
.	.	.	.	.	.	.	32aa\	.	.	.	.	.	.	.	.	.	.	.	.	.	.	.	.	.	.	.	.	.	.	.	.	.	.	.	.	.	.	.	.	.	.	.
8r	.	.	(16e\	.	(16a/	.	32aa\	.	.	.	.	.	.	.	.	.	.	.	.	.	.	.	.	.	.	.	.	.	16AA/	.	.	.	.	.	.	.	.	.	.	.	.	.
.	.	.	.	.	.	.	32gg\	.	.	.	.	.	.	.	.	.	.	.	.	.	.	.	.	.	.	.	.	.	.	.	.	.	.	.	.	.	.	.	.	.	.	.
.	.	.	16c#\JJ)	.	16e/JJ)	.	32ff#\	.	.	.	.	.	.	.	.	.	.	.	.	.	.	.	.	.	.	.	.	.	16AA/JJ	.	.	.	.	.	.	.	.	.	.	.	.	.
.	.	.	.	.	.	.	32ee\JJJ)	.	.	.	.	.	.	.	.	.	.	.	.	.	.	.	.	.	.	.	.	.	.	.	.	.	.	.	.	.	.	.	.	.	.	.
!	!	!	!	!	!	!	!	!	!LO:LB:g=original	!	!	!	!	!	!	!	!	!	!	!	!	!	!	!	!	!	!	!	!	!	!	!	!	!	!	!	!	!	!	!	!	!
=9	=9	=9	=9	=9	=9	=9	=9	=9	=9	=9	=9	=9	=9	=9	=9	=9	=9	=9	=9	=9	=9	=9	=9	=9	=9	=9	=9	=9	=9	=9	=9	=9	=9	=9	=9	=9	=9	=9	=9	=9	=9	=9
8BB/	7	.	(16B/LL	.	(16d/LL	.	16.ff#\LL	.	4B\	Sa-	Sa-	.	.	4f#\	Sa-	Sa-	.	.	4a\	Sa-	Sa-	.	.	4.dd\	Sa-	Sa-	.	.	16D\LL	.	4f#\	.	4a\	.	4dd\	.	4aa\	.	4dd\	.	4aa\	.
.	.	.	16d/)	.	16f#/)	.	.	.	.	.	.	.	.	.	.	.	.	.	.	.	.	.	.	.	.	.	.	.	16D\	.	.	.	.	.	.	.	.	.	.	.	.	.
.	.	.	.	.	.	.	32aa\JJk	.	.	.	.	.	.	.	.	.	.	.	.	.	.	.	.	.	.	.	.	.	.	.	.	.	.	.	.	.	.	.	.	.	.	.
8r	.	.	(16B/	.	(16d/	.	16r	.	.	.	.	.	.	.	.	.	.	.	.	.	.	.	.	.	.	.	.	.	16D\	.	.	.	.	.	.	.	.	.	.	.	.	.
.	.	.	16d/JJ)	.	16f#/JJ)	.	16aa\	.	.	.	.	.	.	.	.	.	.	.	.	.	.	.	.	.	.	.	.	.	16D\JJ	.	.	.	.	.	.	.	.	.	.	.	.	.
!	!	!	!	!	!	!	!LO:LB:g=original	!	!	!	!	!	!	!	!	!	!	!	!	!	!	!	!	!	!	!	!	!	!	!	!	!	!	!	!	!	!	!	!	!	!	!
8BB/	6\	.	(16B/LL	.	(16d/LL	.	(32gg#X\LLL	.	4B\	-ba-	-ba-	.	.	4e\	-ba-	-ba-	.	.	4g#X\	-ba-	-ba-	.	.	.	.	.	.	.	16AA/LL	.	4e\	.	4g\	.	4dd\	.	4gg#\	.	4dd\	.	4gg#X\	.
.	.	.	.	.	.	.	32ff#\	.	.	.	.	.	.	.	.	.	.	.	.	.	.	.	.	.	.	.	.	.	.	.	.	.	.	.	.	.	.	.	.	.	.	.
.	.	.	16G#X/)	.	16e/)	.	32gg#\	.	.	.	.	.	.	.	.	.	.	.	.	.	.	.	.	.	.	.	.	.	16AA/	.	.	.	.	.	.	.	.	.	.	.	.	.
.	.	.	.	.	.	.	32aa\JJJ)	.	.	.	.	.	.	.	.	.	.	.	.	.	.	.	.	.	.	.	.	.	.	.	.	.	.	.	.	.	.	.	.	.	.	.
8r	.	.	(16B/	.	(16d/	.	(32gg#\LLL	.	.	.	.	.	.	.	.	.	.	.	.	.	.	.	.	8dd\	-ba-	-ba-	.	.	16AA/	.	.	.	.	.	.	.	.	.	.	.	.	.
.	.	.	.	.	.	.	32bb\	.	.	.	.	.	.	.	.	.	.	.	.	.	.	.	.	.	.	.	.	.	.	.	.	.	.	.	.	.	.	.	.	.	.	.
.	.	.	16G#/JJ)	.	16e/JJ)	.	32ee\	.	.	.	.	.	.	.	.	.	.	.	.	.	.	.	.	.	.	.	.	.	16AA/JJ	.	.	.	.	.	.	.	.	.	.	.	.	.
.	.	.	.	.	.	.	32gg#\JJJ)	.	.	.	.	.	.	.	.	.	.	.	.	.	.	.	.	.	.	.	.	.	.	.	.	.	.	.	.	.	.	.	.	.	.	.
*	*	*	*	*	*	*	*	*	*	*	*	*	*	*	*	*	*	*	*	*	*	*	*	*	*	*	*	*	*Xtremolo	*	*	*	*	*	*	*	*	*	*	*	*	*
!	!	!	!	!	!	!	!	!	!	!	!	!	!	!LO:LB:g=original	!	!	!	!	!	!	!	!	!	!	!	!	!	!	!	!	!	!LO:DY:a	!	!	!	!LO:DY:a:rj:t=p&colon;	!	!	!	!	!	!
!	!	!	!	!	!	!	!	!	!	!	!	!	!	!	!	!	!	!	!	!	!	!	!	!	!	!	!	!	!	!	!	!LO:MO:null:mod=.	!	!	!	!LO:MO:null:mod=.	!	!	!	!	!	!
8AA/	.	.	(16A\LL	.	(16c#/LL	.	16aa\LL	.	4A\	-oth	-oth.	.	.	4e\	-oth	-oth.	.	.	4a\	-oth	-oth.	.	.	4cc#\	-oth	-oth.	.	.	2r	.	4A/	p	4a\	.	4cc#\	p	4aa\	.	4cc#\	.	4aa\	.
.	.	.	16c#\)	.	16e/)	.	16ee\JJ	.	.	.	.	.	.	.	.	.	.	.	.	.	.	.	.	.	.	.	.	.	.	.	.	.	.	.	.	.	.	.	.	.	.	.
8r	.	.	(16e\	.	(16a/	.	4ee\	.	.	.	.	.	.	.	.	.	.	.	.	.	.	.	.	.	.	.	.	.	.	.	.	.	.	.	.	.	.	.	.	.	.	.
.	.	.	16c#\JJ)	.	16e/JJ)	.	.	.	.	.	.	.	.	.	.	.	.	.	.	.	.	.	.	.	.	.	.	.	.	.	.	.	.	.	.	.	.	.	.	.	.	.
!	!	!	!	!	!	!	!	!	!	!	!	!	!	!	!	!	!	!	!	!	!	!	!	!	!	!	!	!	!	!	!	!LO:MO:null:mod=p	!	!LO:DY:a:t=p&colon;	!	!LO:MO:null:mod=p	!	!LO:DY:a	!	!LO:MO:null:mod=p	!	!LO:DY:a
8AA/	.	.	(16A\LL	.	(16c#/LL	.	.	.	4r	.	.	.	.	4r	.	.	.	.	4r	.	.	.	.	4r	.	.	.	.	.	.	4A/	.	4e\	p	4cc#\	.	4ee\	p	4cc#\	.	4ee\	p
.	.	.	16c#\)	.	16e/)	.	.	.	.	.	.	.	.	.	.	.	.	.	.	.	.	.	.	.	.	.	.	.	.	.	.	.	.	.	.	.	.	.	.	.	.	.
8r	.	.	(16e\	.	(16a/	.	(32ff#\LLL	.	.	.	.	.	.	.	.	.	.	.	.	.	.	.	.	.	.	.	.	.	.	.	.	.	.	.	.	.	.	.	.	.	.	.
.	.	.	.	.	.	.	32ee\	.	.	.	.	.	.	.	.	.	.	.	.	.	.	.	.	.	.	.	.	.	.	.	.	.	.	.	.	.	.	.	.	.	.	.
.	.	.	16c#\JJ)	.	16e/JJ)	.	32dd\	.	.	.	.	.	.	.	.	.	.	.	.	.	.	.	.	.	.	.	.	.	.	.	.	.	.	.	.	.	.	.	.	.	.	.
.	.	.	.	.	.	.	32cc#\JJJ)	.	.	.	.	.	.	.	.	.	.	.	.	.	.	.	.	.	.	.	.	.	.	.	.	.	.	.	.	.	.	.	.	.	.	.
!LO:LB:g=original	!	!	!	!	!	!	!	!	!	!	!	!	!	!	!	!	!	!	!LO:LB:g=original	!	!	!	!	!LO:LB:g=original	!	!	!	!	!	!	!	!	!	!	!	!	!LO:LB:g=original	!	!	!	!	!
=10	=10	=10	=10	=10	=10	=10	=10	=10	=10	=10	=10	=10	=10	=10	=10	=10	=10	=10	=10	=10	=10	=10	=10	=10	=10	=10	=10	=10	=10	=10	=10	=10	=10	=10	=10	=10	=10	=10	=10	=10	=10	=10
!	!	!	!	!	!	!	!	!	!	!	!	!	!	!	!	!	!	!	!	!	!	!	!	!	!	!	!	!	!LO:TX:a:t=2.:mod=	!	!	!	!	!	!	!	!	!	!	!	!	!
8D\	6	.	(16B\LL	.	(16d/LL	.	16cc#\LL	.	0r	.	.	.	.	0r	.	.	.	.	0r	.	.	.	.	0r	.	.	.	.	0r	.	4d\	.	4f#\	.	4dd\	.	4ff#\	.	4dd\	.	4ff#\	.
.	.	.	16d\)	.	16f#/)	.	16b\J	.	.	.	.	.	.	.	.	.	.	.	.	.	.	.	.	.	.	.	.	.	.	.	.	.	.	.	.	.	.	.	.	.	.	.
8r	.	.	(16f#\	.	(16b/	.	8.b\J	.	.	.	.	.	.	.	.	.	.	.	.	.	.	.	.	.	.	.	.	.	.	.	.	.	.	.	.	.	.	.	.	.	.	.
.	.	.	16d\JJ)	.	16f#/JJ)	.	.	.	.	.	.	.	.	.	.	.	.	.	.	.	.	.	.	.	.	.	.	.	.	.	.	.	.	.	.	.	.	.	.	.	.	.
!	!	!	!LO:LB:g=original	!	!	!	!	!	!	!	!	!	!	!	!	!	!	!	!	!	!	!	!	!	!	!	!	!	!	!	!	!	!	!	!	!	!	!	!	!	!	!
8E\	#	.	(16G#X/LL	.	(16e/LL	.	.	.	.	.	.	.	.	.	.	.	.	.	.	.	.	.	.	.	.	.	.	.	.	.	4e\	.	4e\	.	4b\	.	4gg#\	.	4b\	.	4gg#X\	.
.	.	.	16B/)	.	16g#X/)	.	(32a\LLL	.	.	.	.	.	.	.	.	.	.	.	.	.	.	.	.	.	.	.	.	.	.	.	.	.	.	.	.	.	.	.	.	.	.	.
.	.	.	.	.	.	.	32b\	.	.	.	.	.	.	.	.	.	.	.	.	.	.	.	.	.	.	.	.	.	.	.	.	.	.	.	.	.	.	.	.	.	.	.
8r	.	.	(16d/	.	(16b/	.	32cc#\	.	.	.	.	.	.	.	.	.	.	.	.	.	.	.	.	.	.	.	.	.	.	.	.	.	.	.	.	.	.	.	.	.	.	.
.	.	.	.	.	.	.	32dd\	.	.	.	.	.	.	.	.	.	.	.	.	.	.	.	.	.	.	.	.	.	.	.	.	.	.	.	.	.	.	.	.	.	.	.
.	.	.	16B/JJ)	.	16g#/JJ)	.	32ee\	.	.	.	.	.	.	.	.	.	.	.	.	.	.	.	.	.	.	.	.	.	.	.	.	.	.	.	.	.	.	.	.	.	.	.
.	.	.	.	.	.	.	32dd\JJJ)	.	.	.	.	.	.	.	.	.	.	.	.	.	.	.	.	.	.	.	.	.	.	.	.	.	.	.	.	.	.	.	.	.	.	.
!	!	!	!	!	!LO:LB:g=original	!	!	!	!	!	!	!	!	!	!	!	!	!	!	!	!	!	!	!	!	!	!	!	!	!	!	!	!	!	!LO:LB:g=original	!LO:DY:a	!	!	!	!LO:DY:a:t=p&colon;	!	!
!	!	!	!	!	!	!	!	!	!	!	!	!	!	!	!	!	!	!	!	!	!	!	!	!	!	!	!	!	!	!	!	!	!	!	!	!LO:MO:null:mod=.	!	!	!	!LO:MO:null:mod=.	!	!
8A\	.	.	(16A\LL	.	(16c#/LL	.	16cc#\LL	.	.	.	.	.	.	.	.	.	.	.	.	.	.	.	.	.	.	.	.	.	.	.	4A/	.	4e\	.	4cc#\	p	4aa\	.	4cc#\	p	4aa\	.
.	.	.	16c#\)	.	16e/)	.	16ee\JJ	.	.	.	.	.	.	.	.	.	.	.	.	.	.	.	.	.	.	.	.	.	.	.	.	.	.	.	.	.	.	.	.	.	.	.
8r	.	.	(16e\	.	(16a/	.	4eeT\	.	.	.	.	.	.	.	.	.	.	.	.	.	.	.	.	.	.	.	.	.	.	.	.	.	.	.	.	.	.	.	.	.	.	.
.	.	.	16c#\JJ)	.	16e/JJ)	.	.	.	.	.	.	.	.	.	.	.	.	.	.	.	.	.	.	.	.	.	.	.	.	.	.	.	.	.	.	.	.	.	.	.	.	.
8AA/	.	.	(16A\LL	.	(16c#/LL	.	.	.	.	.	.	.	.	.	.	.	.	.	.	.	.	.	.	.	.	.	.	.	.	.	4A/	.	4e\	.	4cc#\	.	4ee\	.	4cc#\	.	4ee\	.
.	.	.	16c#\)	.	16e/)	.	.	.	.	.	.	.	.	.	.	.	.	.	.	.	.	.	.	.	.	.	.	.	.	.	.	.	.	.	.	.	.	.	.	.	.	.
8r	.	.	(16e\	.	(16a/	.	32ff#\LLL	.	.	.	.	.	.	.	.	.	.	.	.	.	.	.	.	.	.	.	.	.	.	.	.	.	.	.	.	.	.	.	.	.	.	.
.	.	.	.	.	.	.	32ee\	.	.	.	.	.	.	.	.	.	.	.	.	.	.	.	.	.	.	.	.	.	.	.	.	.	.	.	.	.	.	.	.	.	.	.
.	.	.	16c#\JJ)	.	16e/JJ)	.	32dd\	.	.	.	.	.	.	.	.	.	.	.	.	.	.	.	.	.	.	.	.	.	.	.	.	.	.	.	.	.	.	.	.	.	.	.
.	.	.	.	.	.	.	32cc#\JJJ	.	.	.	.	.	.	.	.	.	.	.	.	.	.	.	.	.	.	.	.	.	.	.	.	.	.	.	.	.	.	.	.	.	.	.
!	!	!	!	!	!	!	!	!	!	!	!	!	!	!	!	!	!	!	!	!	!	!	!	!	!	!	!	!	!	!	!	!	!	!	!	!	!	!	!LO:LB:g=original	!	!LO:LB:g=original	!
=11	=11	=11	=11	=11	=11	=11	=11	=11	=11	=11	=11	=11	=11	=11	=11	=11	=11	=11	=11	=11	=11	=11	=11	=11	=11	=11	=11	=11	=11	=11	=11	=11	=11	=11	=11	=11	=11	=11	=11	=11	=11	=11
8D\	6	.	(16B\LL	.	(16d/LL	.	16cc#\LL	.	.	.	.	.	.	.	.	.	.	.	.	.	.	.	.	.	.	.	.	.	.	.	4d\	.	4f#\	.	4dd\	.	4ff#\	.	4dd\	.	4ff#\	.
.	.	.	16d\)	.	16f#/)	.	16b\J	.	.	.	.	.	.	.	.	.	.	.	.	.	.	.	.	.	.	.	.	.	.	.	.	.	.	.	.	.	.	.	.	.	.	.
8r	.	.	(16f#\	.	(16b/	.	8.b\J	.	.	.	.	.	.	.	.	.	.	.	.	.	.	.	.	.	.	.	.	.	.	.	.	.	.	.	.	.	.	.	.	.	.	.
.	.	.	16d\JJ)	.	16f#/JJ)	.	.	.	.	.	.	.	.	.	.	.	.	.	.	.	.	.	.	.	.	.	.	.	.	.	.	.	.	.	.	.	.	.	.	.	.	.
!	!	!	!	!	!	!	!	!	!	!	!	!	!	!	!	!	!	!	!	!	!	!	!	!	!	!	!	!	!	!	!	!	!	!	!	!	!LO:SIC:v:s=4gg#\	!	!	!	!	!
8E\	#	.	(16G#X/LL	.	(16e/LL	.	.	.	.	.	.	.	.	.	.	.	.	.	.	.	.	.	.	.	.	.	.	.	.	.	4e\	.	4e\	.	4b\	.	4gg\	.	4b\	.	4gg#X\	.
.	.	.	16B/)	.	16g#X/)	.	(32a\LLL	.	.	.	.	.	.	.	.	.	.	.	.	.	.	.	.	.	.	.	.	.	.	.	.	.	.	.	.	.	.	.	.	.	.	.
.	.	.	.	.	.	.	32b\	.	.	.	.	.	.	.	.	.	.	.	.	.	.	.	.	.	.	.	.	.	.	.	.	.	.	.	.	.	.	.	.	.	.	.
8r	.	.	(16d/	.	(16b/	.	32cc#\	.	.	.	.	.	.	.	.	.	.	.	.	.	.	.	.	.	.	.	.	.	.	.	.	.	.	.	.	.	.	.	.	.	.	.
.	.	.	.	.	.	.	32dd\	.	.	.	.	.	.	.	.	.	.	.	.	.	.	.	.	.	.	.	.	.	.	.	.	.	.	.	.	.	.	.	.	.	.	.
.	.	.	16B/JJ)	.	16g#/JJ)	.	32ee\	.	.	.	.	.	.	.	.	.	.	.	.	.	.	.	.	.	.	.	.	.	.	.	.	.	.	.	.	.	.	.	.	.	.	.
.	.	.	.	.	.	.	32dd\JJJ)	.	.	.	.	.	.	.	.	.	.	.	.	.	.	.	.	.	.	.	.	.	.	.	.	.	.	.	.	.	.	.	.	.	.	.
!LO:TX:t=P:problem=mixed beam	!	!	!	!	!	!	!	!	!	!	!	!	!	!	!	!	!	!	!	!	!	!	!	!	!	!	!	!	!	!	!	!	!	!	!	!	!	!	!	!	!	!
8A\L	.	.	(16c#\LL	.	(16a/LL	.	8cc#\L	.	.	.	.	.	.	.	.	.	.	.	.	.	.	.	.	.	.	.	.	.	.	.	8A/L	.	8e\L	.	8cc#\L	.	8aa\L	.	8cc#\L	.	8aa\L	.
.	.	.	16e\)	.	16cc#/)	.	.	.	.	.	.	.	.	.	.	.	.	.	.	.	.	.	.	.	.	.	.	.	.	.	.	.	.	.	.	.	.	.	.	.	.	.
8AA/J	.	.	(16c#\	.	(16a/	.	8cc#\J	.	.	.	.	.	.	.	.	.	.	.	.	.	.	.	.	.	.	.	.	.	.	.	8A/J	.	8e\J	.	8cc#\J	.	8ee\J	.	8cc#\J	.	8ee\J	.
.	.	.	16e\JJ)	.	16cc#/JJ)	.	.	.	.	.	.	.	.	.	.	.	.	.	.	.	.	.	.	.	.	.	.	.	.	.	.	.	.	.	.	.	.	.	.	.	.	.
4AA/	.	.	4c#\	.	4a/	.	4cc#\	.	.	.	.	.	.	.	.	.	.	.	.	.	.	.	.	.	.	.	.	.	.	.	4A/	.	4e\	.	4cc#\	.	4ee\	.	4cc#\	.	4ee\	.
!LO:LB:g=original	!	!	!LO:LB:g=original	!	!LO:LB:g=original	!	!LO:LB:g=original	!	!	!	!	!	!	!	!	!	!	!	!	!	!	!	!	!	!	!	!	!	!	!	!LO:LB:g=original	!	!LO:LB:g=original	!	!	!	!LO:LB:g=original	!	!	!	!	!
=12||	=12||	=12||	=12||	=12||	=12||	=12||	=12||	=12||	=12||	=12||	=12||	=12||	=12||	=12||	=12||	=12||	=12||	=12||	=12||	=12||	=12||	=12||	=12||	=12||	=12||	=12||	=12||	=12||	=12||	=12||	=12||	=12||	=12||	=12||	=12||	=12||	=12||	=12||	=12||	=12||	=12||	=12||
!!!OMD:
!!!OMD-mod: Allegro
*k[f#c#]	*	*	*k[f#c#]	*	*k[f#c#]	*	*k[f#c#]	*	*k[f#c#]	*	*	*	*	*k[f#c#]	*	*	*	*	*k[f#c#]	*	*	*	*	*k[f#c#]	*	*	*	*	*k[f#c#]	*	*k[f#c#]	*	*k[f#c#]	*	*k[f#c#]	*	*k[f#c#]	*	*k[f#c#]	*	*k[f#c#]	*
*M4/4	*	*	*M4/4	*	*M4/4	*	*M4/4	*	*M4/4	*	*	*	*	*M4/4	*	*	*	*	*M4/4	*	*	*	*	*M4/4	*	*	*	*	*M4/4	*	*M4/4	*	*M4/4	*	*M4/4	*	*M4/4	*	*M4/4	*	*M4/4	*
*met(C.)	*	*	*met(C.)	*	*met(C.)	*	*met(C.)	*	*met(C.)	*	*	*	*	*met(C.)	*	*	*	*	*met(C.)	*	*	*	*	*met(C.)	*	*	*	*	*met(c)	*	*met(C.)	*	*met(C.)	*	*met(c)	*	*met(c)	*	*met(C.)	*	*met(C.)	*
!	!	!LO:MO:null:mod=!LO&colon;DY&colon;ed=brack	!	!	!	!	!	!	!	!	!	!	!	!	!	!	!	!	!	!	!	!	!	!	!	!	!	!	!LO:TX:t=P:problem=mixed beam	!LO:MO:null:mod=!LO&colon;DY&colon;ed=brack	!	!	!	!	!	!	!	!	!	!	!	!
!LO:TX:a:i:t=tutti	!	!	!	!	!	!	!	!	!	!	!	!	!	!	!	!	!	!	!	!	!	!	!	!	!	!	!	!	!LO:TX:a:i:t=Pleni:mod=	!	!	!	!	!	!	!	!LO:TX:a:i:t=Pleni:mod=	!	!	!	!	!
!LO:TX:a:Bi:t=allo:mod=	!	!LO:MO:null:mod=f	!LO:TX:a:Bi:t=allo:mod=	!LO:DY:a	!LO:TX:a:Bi:t=allo:mod=	!LO:DY:a	!LO:TX:a:Bi:t=allo:mod=	!LO:DY:a	!LO:TX:a:Bi:t=allo&colon;:mod=	!	!	!LO:DY:a:t=f&colon;	!	!LO:TX:a:Bi:t=allo:mod=	!	!	!LO:DY:a:t=f&colon;	!	!LO:TX:a:Bi:t=allo&colon;:mod=	!	!	!LO:DY:a:t=f&colon;	!	!LO:TX:a:Bi:t=allo&colon;:mod=	!	!	!	!LO:DY:ed=brack	!LO:TX:a:Bi:t=Allo:mod=	!LO:MO:null:mod=f	!LO:TX:a:Bi:t=allo&colon;:mod=	!LO:DY:a:t=for	!LO:TX:a:Bi:t=allo:mod=	!LO:DY:a	!LO:TX:a:Bi:t=allo&colon;:mod=	!LO:DY:a:t=f&colon;	!LO:TX:a:Bi:t=allo&colon;:mod=	!LO:DY:rj	!LO:TX:a:Bi:t=allo:mod=	!LO:DY:a:t=f&colon;	!LO:TX:a:Bi:t=allo&colon;:mod=	!LO:DY:a:t=f&colon;
8D\L	.	.	4A/	f	8f#/L	f	8a\L	f	8D\L	Ple-	Ple-	f	f	4A\	Ple-	Ple-	f	f	8f#\L	Ple-	Ple-	f	f	8dd\L	Ple-	Ple-	.	f	8D\L	.	8F#/L	f	8d\L	f	8f#\L	f	8dd\L	f	8f#/L	f	8dd\L	f
!	!	!	!	!	!	!	!	!	!	!	!	!	!	!	!	!	!	!	!	!	!	!	!	!	!	!	!	!	!LO:SIC:s=8AA	!	!LO:SIC:s=8A	!	!	!	!	!	!	!	!LO:SIC:s=8g	!	!	!
8E\	6	.	.	.	8g/J	.	16b\L	.	8E\J	.	.	.	.	.	.	.	.	.	8g\J	.	.	.	.	8cc#\J	.	.	.	.	8AA/J	.	8A/J	.	8e\	.	8g\	.	8cc#\	.	8g/J	.	8cc#\	.
.	.	.	.	.	.	.	16cc#\JJ	.	.	.	.	.	.	.	.	.	.	.	.	.	.	.	.	.	.	.	.	.	.	.	.	.	.	.	.	.	.	.	.	.	.	.
!	!	!	!	!	!	!	!	!	!	!	!	!	!	!	!	!	!	!	!	!	!	!	!	!	!	!	!	!	!LO:SIC:s=8D	!	!LO:SIC:s=8d	!	!	!	!	!	!	!	!LO:SIC:s=8a	!	!	!
8F#\	6	.	4A/	.	8a\L	.	8dd\L	.	8F#\	-ni	-ni	.	.	8A\	-ni	-ni	.	.	8a\	-ni	-ni	.	.	8dd\	-ni	-ni	.	.	8D\L	.	8d\L	.	8f#\	.	8a\	.	8dd\	.	8a\L	.	8dd\	.
8D\J	.	.	.	.	8dd\J	.	8ff#\J	.	8D\	Sunt	sunt	.	.	8A\	Sunt	sunt	.	.	8f#\	Sunt	sunt	.	.	8dd\	Sunt	sunt	.	.	8D\J	.	8d\J	.	8f#\J	.	8dd\J	.	8ff#\J	.	8dd\J	.	8ff#\J	.
!	!	!	!	!	!	!	!LO:SIC:s=(8.ggL 8.a	!	!	!	!	!	!	!	!	!	!	!	!	!	!	!	!	!	!	!	!	!	!	!	!	!	!	!	!	!	!	!	!	!	!	!
8C#/L	6 5	.	8A/L	.	(8.ee\L	.	8.ggL 8.a\	.	8C#/L	Cae-	cae-	.	.	4A\	Cae-	cae-	.	.	4g\	Cae-	cae-	.	.	4ee\	Cae-	cae-	.	.	4AA/	.	4A/	.	4e\	.	4ee\	.	4gg\	.	4ee\	.	4gg\	.
8AA/	.	.	8A/	.	.	.	.	.	8AA/J	.	.	.	.	.	.	.	.	.	.	.	.	.	.	.	.	.	.	.	.	.	.	.	.	.	.	.	.	.	.	.	.	.
.	.	.	.	.	32ff#\LL	.	32aa\LL	.	.	.	.	.	.	.	.	.	.	.	.	.	.	.	.	.	.	.	.	.	.	.	.	.	.	.	.	.	.	.	.	.	.	.
!	!	!	!	!	!	!	!LO:SIC:s=32ggJJJ)	!	!	!	!	!	!	!	!	!	!	!	!	!	!	!	!	!	!	!	!	!	!	!	!	!	!	!	!	!	!	!	!	!	!	!
.	.	.	.	.	32ee\JJJ)	.	32gg\JJJ	.	.	.	.	.	.	.	.	.	.	.	.	.	.	.	.	.	.	.	.	.	.	.	.	.	.	.	.	.	.	.	.	.	.	.
!	!	!	!	!	!LO:TX:t=P:problem=mixed beam	!	!	!	!	!	!	!	!	!	!	!	!	!	!LO:TX:a:i:t=Sol&colon;:mod=	!	!	!	!	!LO:TX:a:i:t=Solo&colon;:mod=	!	!	!	!	!	!	!	!	!	!	!	!	!	!	!LO:TX:a:i:t=Sol&colon;:mod=	!	!	!
8D/J	.	.	8A/J	.	8dd\L	.	8ff#\L	.	8D\	-li	-li	.	.	8A\	-li	-li	.	.	8f#\	-li	-li	.	.	8dd\	-li	-li	.	.	8D\	.	8F#/	.	8d\	.	8dd\L	.	8ff#\L	.	8dd\L	.	8ff#\L	.
!	!	!	!	!	!	!	!	!	!	!	!	!	!	!	!	!	!	!	!	!	!	!	!	!	!	!	!	!	!	!	!	!	!	!	!	!LO:MO:null:mod=!LO&colon;DY&colon;ed=brack	!	!LO:MO:null:mod=!LO&colon;DY&colon;ed=brack	!	!LO:MO:null:mod=!LO&colon;DY&colon;ed=brack	!	!LO:MO:null:mod=!LO&colon;DY&colon;ed=brack
!	!	!	!	!	!	!	!	!	!	!	!	!	!	!	!	!	!	!	!	!	!	!	!	!	!	!	!	!	!	!	!	!	!	!	!	!	!	!	!	!	!	!
!	!	!	!	!	!	!LO:DY:a:t=p&colon;	!	!LO:DY:a	!	!	!	!	!	!	!	!	!	!	!	!	!	!	!LO:DY:ed=brack	!	!	!	!	!LO:DY:ed=brack	!	!	!	!	!	!	!LO:TX:a:i:t=Solo:mod=	!LO:MO:null:mod=p	!LO:TX:a:i:t=Sol&colon;:mod=	!LO:MO:null:mod=p	!	!LO:MO:null:mod=p	!LO:TX:a:i:t=Solo&colon;:mod=	!LO:MO:null:mod=p
8r	.	.	8r	.	8f#/J	p	8a\J	p	8r	.	.	.	.	8r	.	.	.	.	8a\	Sunt	sunt	.	p	8ff#\	Sunt	sunt	.	p	8r	.	8r	.	8r	.	8ff#\J	.	8aa\J	.	8ff#\J	.	8aa\J	.
=13	=13	=13	=13	=13	=13	=13	=13	=13	=13	=13	=13	=13	=13	=13	=13	=13	=13	=13	=13	=13	=13	=13	=13	=13	=13	=13	=13	=13	=13	=13	=13	=13	=13	=13	=13	=13	=13	=13	=13	=13	=13	=13
!	!	!LO:DY:a:rj	!	!LO:DY:a:t=p&colon;	!	!	!	!	!	!	!	!LO:DY:a:t=p&colon;	!	!	!	!	!LO:DY:a:t=p&colon;	!	!	!	!	!	!	!	!	!	!	!	!LO:TX:a:t=1.	!	!	!	!	!	!	!	!	!	!	!	!	!
!	!	!LO:MO:null:mod=.	!	!LO:MO:null:mod=.	!	!	!	!	!	!	!	!	!	!	!	!	!	!	!	!	!	!	!	!	!	!	!	!	!	!	!	!	!	!	!	!	!	!	!	!	!	!
8r	.	p	8r	p	4f#/	.	4a/	.	8r	.	.	p	.	8r	.	.	p	.	4a\	Cae-	cae-	.	.	4ff#\	Cae-	cae-	.	.	1r	.	1r	.	1r	.	4ff#\	.	4aa\	.	4ff#\	.	4aa\	.
!	!	!LO:MO:null:mod=p	!	!LO:MO:null:mod=p	!	!	!	!	!	!	!	!	!	!	!	!	!	!	!	!	!	!	!	!	!	!	!	!	!	!	!	!	!	!	!	!	!	!	!	!	!	!
8D\L	.	.	8A/L	.	.	.	.	.	8D\	Cae-	cae-	.	p	8A\	Cae-	cae-	.	p	.	.	.	.	.	.	.	.	.	.	.	.	.	.	.	.	.	.	.	.	.	.	.	.
8C#\	6 5	.	8A/	.	8e/L	.	8g/L	.	8C#\	-li	-li	.	.	8A\	-li	-li	.	.	8g\	-li	-li	.	.	8ee\	-li	-li	.	.	.	.	.	.	.	.	8ee\L	.	8gg\L	.	8ee\L	.	8gg\L	.
8D\J	.	.	8A/J	.	8d/J	.	8f#/J	.	8D\	(et)	et	.	.	8A\	(et)	et	.	.	8f#\	(et)	et	.	.	8dd\	(et)	et	.	.	.	.	.	.	.	.	8dd\J	.	8ff#\J	.	8dd\J	.	8ff#\J	.
!	!	!	!	!	!LO:SIC:s=(8.c#L	!	!	!	!	!	!	!	!	!	!	!	!	!	!	!	!	!	!	!	!	!	!	!	!	!	!	!	!	!	!	!	!	!	!	!	!	!
8A\L	3_	.	8A/L	.	8.c#/L	.	(8.e/L	.	8A\L	ter-	ter-	.	.	4A\	ter-	ter-	.	.	4e\	ter-	ter-	.	.	4cc#\	ter-	ter-	.	.	.	.	.	.	.	.	4cc#\	.	4ee\	.	4cc#\	.	4ee\	.
8G\	.	.	8A/	.	.	.	.	.	8G\J	.	.	.	.	.	.	.	.	.	.	.	.	.	.	.	.	.	.	.	.	.	.	.	.	.	.	.	.	.	.	.	.	.
.	.	.	.	.	32B/LL	.	32d/LL	.	.	.	.	.	.	.	.	.	.	.	.	.	.	.	.	.	.	.	.	.	.	.	.	.	.	.	.	.	.	.	.	.	.	.
!	!	!	!	!	!LO:SIC:s=32c#JJJ)	!	!	!	!	!	!	!	!	!	!	!	!	!	!	!	!	!	!	!	!	!	!	!	!	!	!	!	!	!	!	!	!	!	!	!	!	!
.	.	.	.	.	32c#/JJJ	.	32e/JJJ)	.	.	.	.	.	.	.	.	.	.	.	.	.	.	.	.	.	.	.	.	.	.	.	.	.	.	.	.	.	.	.	.	.	.	.
8F#\J	6	.	8A/J	.	8d/	.	8f#/	.	8F#\	-ra	-ra.	.	.	8A\	-ra	-ra.	.	.	8f#\	-ra	-ra.	.	.	8dd\	-ra	-ra.	.	.	.	.	.	.	.	.	8dd\	.	8ff#\	.	8dd\	.	8ff#\	.
8r	.	.	8r	.	8r	.	8r	.	8r	.	.	.	.	8r	.	.	.	.	8r	.	.	.	.	8r	.	.	.	.	.	.	.	.	.	.	8r	.	8r	.	8r	.	8r	.
!	!	!	!	!	!	!	!	!	!LO:LB:g=original	!	!	!	!	!	!	!	!	!	!	!	!	!	!	!	!	!	!	!	!	!	!	!	!	!	!	!	!	!	!	!	!	!
=14	=14	=14	=14	=14	=14	=14	=14	=14	=14	=14	=14	=14	=14	=14	=14	=14	=14	=14	=14	=14	=14	=14	=14	=14	=14	=14	=14	=14	=14	=14	=14	=14	=14	=14	=14	=14	=14	=14	=14	=14	=14	=14
!	!	!	!	!	!	!	!	!	!	!	!	!	!	!	!	!	!	!	!	!	!	!	!	!	!	!	!	!	!	!LO:MO:null:mod=!LO&colon;DY&colon;ed=brack	!	!LO:MO:null:mod=!LO&colon;DY&colon;ed=brack	!	!LO:MO:null:mod=!LO&colon;DY&colon;ed=brack	!	!	!	!	!	!	!	!
!	!	!	!	!	!	!	!	!	!	!	!	!	!	!	!	!	!	!	!	!	!	!	!	!	!	!	!	!	!	!	!	!	!	!	!	!	!	!	!	!	!	!
!	!	!LO:DY:a:rj	!	!LO:DY:a:t=f&colon;	!	!LO:DY:a:rj	!	!LO:DY:a:rj	!	!	!	!LO:DY:a:t=f&colon;	!	!	!	!	!LO:DY:a:t=f&colon;	!	!	!	!	!LO:DY:rj:a:t=f&colon;	!	!	!	!	!LO:DY:a:t=f&colon;	!	!LO:TX:t=P:problem=mixed beam	!LO:MO:null:mod=f	!	!LO:MO:null:mod=f	!	!LO:MO:null:mod=f	!	!LO:DY:a	!	!LO:DY:a:rj	!	!LO:DY:a	!	!LO:DY:a:rj
8D\L	.	f	4A/	f	8f#/L	f	8a\L	f	8D\L	ple-	Ple-	f	f	4A\	Ple-	Ple-	f	f	8f#\L	ple-	Ple-	f	f	8dd\L	ple-	Ple-	f	f	8D\L	.	8F#/L	.	8d\L	.	8f#\L	f	8dd\L	f	8f#/L	f	8dd\L	f
!	!	!	!	!	!	!	!	!	!	!	!	!	!	!	!	!	!	!	!	!	!	!	!	!	!	!	!	!	!LO:SIC:s=8AA	!	!LO:SIC:s=8A	!	!	!	!	!	!	!	!LO:SIC:s=8g	!	!	!
8E\	6	.	.	.	8g/J	.	16b\L	.	8E\J	.	.	.	.	.	.	.	.	.	8g\J	.	.	.	.	8cc#\J	.	.	.	.	8AA/J	.	8A/J	.	8e\	.	8g\	.	8cc#\	.	8g/J	.	8cc#\	.
.	.	.	.	.	.	.	16cc#\JJ	.	.	.	.	.	.	.	.	.	.	.	.	.	.	.	.	.	.	.	.	.	.	.	.	.	.	.	.	.	.	.	.	.	.	.
!	!	!	!	!	!	!	!	!	!	!	!	!	!	!	!	!	!	!	!	!	!	!	!	!	!	!	!	!	!LO:SIC:s=8D	!	!LO:SIC:s=8d	!	!	!	!	!	!	!	!LO:SIC:s=8a	!	!	!
8F#\	6	.	4A/	.	8a\L	.	8dd\L	.	8F#\	-ni	-ni	.	.	8A\	-ni	-ni	.	.	8a\	-ni	-ni	.	.	8dd\	-ni	-ni	.	.	8D\L	.	8d\L	.	8f#\	.	8a\	.	8dd\	.	8a\L	.	8dd\	.
8D\J	.	.	.	.	8dd\J	.	8ff#\J	.	8D\	Sunt	sunt	.	.	8A\	Sunt	sunt	.	.	8f#\	Sunt	sunt	.	.	8dd\	Sunt	sunt	.	.	8D\J	.	8d\J	.	8f#\J	.	8dd\J	.	8ff#\J	.	8dd\J	.	8ff#\J	.
!	!	!	!	!	!LO:SIC:s=(8.eeL	!	!LO:SIC:s=(8.ggL	!	!	!	!	!	!	!	!	!	!	!	!	!	!	!	!	!	!	!	!	!	!	!	!	!	!	!	!LO:LB:g=original	!	!	!	!	!	!	!
8C#/L	6 5	.	8A/L	.	8.ee\L	.	8.ggL 8.a\	.	8C#/L	Cae-	cae-	.	.	4A\	Cae-	cae-	.	.	4g\	Cae-	cae-	.	.	4ee\	Cae-	cae-	.	.	4AA/	.	4A/	.	4e\	.	4ee\	.	4gg\	.	4ee\	.	4gg\	.
8AA/	.	.	8A/	.	.	.	.	.	8AA/J	.	.	.	.	.	.	.	.	.	.	.	.	.	.	.	.	.	.	.	.	.	.	.	.	.	.	.	.	.	.	.	.	.
.	.	.	.	.	32ff#\LL	.	32aa\LL	.	.	.	.	.	.	.	.	.	.	.	.	.	.	.	.	.	.	.	.	.	.	.	.	.	.	.	.	.	.	.	.	.	.	.
!	!	!	!	!	!LO:SIC:s=32eeJJJ)	!	!LO:SIC:s=32ggJJJ)	!	!	!	!	!	!	!	!	!	!	!	!	!	!	!	!	!	!	!	!	!	!	!	!	!	!	!	!	!	!	!	!	!	!	!
.	.	.	.	.	32ee\JJJ	.	32gg\JJJ	.	.	.	.	.	.	.	.	.	.	.	.	.	.	.	.	.	.	.	.	.	.	.	.	.	.	.	.	.	.	.	.	.	.	.
!	!	!	!	!	!LO:TX:t=P:problem=mixed beam	!	!	!	!	!	!	!	!	!	!	!	!	!	!LO:TX:a:i:t=Sol&colon;:mod=	!	!	!	!	!LO:TX:a:i:t=Sol&colon;:mod=	!	!	!	!	!	!	!	!	!	!	!LO:TX:a:i:t=Solo&colon;:mod=	!	!LO:TX:a:i:t=Sol&colon;:mod=	!	!LO:TX:a:i:t=Sol&colon;:mod=	!	!	!
8D/J	.	.	8A/J	.	8dd\L	.	8ff#\L	.	8D\	-li	-li	.	.	8A\	-li	-li	.	.	8f#\	-li	-li	.	.	8dd\	-li	-li	.	.	8D\	.	8F#/	.	8d\	.	8dd\L	.	8ff#\L	.	8dd\L	.	8ff#\L	.
!	!	!	!	!	!	!	!	!	!	!	!	!	!	!	!	!	!	!	!	!	!	!	!	!	!	!	!	!	!	!	!	!	!	!	!	!LO:MO:null:mod=!LO&colon;DY&colon;ed=brack	!	!LO:MO:null:mod=!LO&colon;DY&colon;ed=brack	!	!LO:MO:null:mod=!LO&colon;DY&colon;ed=brack	!	!LO:MO:null:mod=!LO&colon;DY&colon;ed=brack
!	!	!	!	!	!	!	!	!	!	!	!	!	!	!	!	!	!	!	!	!	!	!	!	!	!	!	!	!	!	!	!	!	!	!	!	!	!	!	!	!	!	!
!	!	!	!	!	!	!LO:DY:a	!	!LO:DY:a	!	!	!	!	!	!	!	!	!	!	!	!	!	!	!LO:DY:ed=brack	!	!	!	!	!LO:DY:ed=brack	!	!	!	!	!	!	!	!LO:MO:null:mod=p	!	!LO:MO:null:mod=p	!	!LO:MO:null:mod=p	!LO:TX:a:i:t=Solo&colon;:mod=	!LO:MO:null:mod=p
8r	.	.	8r	.	8f#/J	p	8a\J	p	8r	.	.	.	.	8r	.	.	.	.	8a\	Sunt	sunt	.	p	8ff#\	Sunt	sunt	.	p	8r	.	8r	.	8r	.	8ff#\J	.	8aa\J	.	8ff#\J	.	8aa\J	.
!	!	!	!	!	!	!	!	!	!	!	!	!	!	!LO:LB:g=original	!	!	!	!	!LO:LB:g=original	!	!	!	!	!LO:LB:g=original	!	!	!	!	!	!	!	!	!	!	!	!	!	!	!	!	!	!
=15	=15	=15	=15	=15	=15	=15	=15	=15	=15	=15	=15	=15	=15	=15	=15	=15	=15	=15	=15	=15	=15	=15	=15	=15	=15	=15	=15	=15	=15	=15	=15	=15	=15	=15	=15	=15	=15	=15	=15	=15	=15	=15
!	!	!LO:DY:a:rj	!	!LO:DY:a:t=p&colon;	!	!	!	!	!	!	!	!LO:DY:a:t=p&colon;	!	!	!	!	!LO:DY:a:t=p&colon;	!	!	!	!	!	!	!	!	!	!	!	!LO:TX:a:t=1.	!	!	!	!	!	!	!	!	!	!	!	!	!
!	!	!LO:MO:null:mod=.	!	!LO:MO:null:mod=.	!	!	!	!	!	!	!	!	!	!	!	!	!	!	!	!	!	!	!	!	!	!	!	!	!	!	!	!	!	!	!	!	!	!	!	!	!	!
8r	.	p	8r	p	4f#/	.	4a/	.	8r	.	.	p	.	8r	.	.	p	.	4a\	Cae-	cae-	.	.	4ff#\	Cae-	cae-	.	.	1r	.	1r	.	1r	.	4ff#\	.	4aa\	.	4ff#\	.	4aa\	.
!	!	!LO:MO:null:mod=p	!	!LO:MO:null:mod=p	!	!	!	!	!	!	!	!	!	!	!	!	!	!	!	!	!	!	!	!	!	!	!	!	!	!	!	!	!	!	!	!	!	!	!	!	!	!
8D\L	.	.	8A/L	.	.	.	.	.	8D\	Cae-	cae-	.	p	8A\	Cae-	cae-	.	p	.	.	.	.	.	.	.	.	.	.	.	.	.	.	.	.	.	.	.	.	.	.	.	.
8C#\	6 5	.	8A/	.	8e/L	.	8g/L	.	8C#\	-li	-li	.	.	8A\	-li	-li	.	.	8g\	-li	-li	.	.	8ee\	-li	-li	.	.	.	.	.	.	.	.	8ee\L	.	8gg\L	.	8ee\L	.	8gg\L	.
8D\J	.	.	8A/J	.	8d/J	.	8f#/J	.	8D\	(et)	et	.	.	8A\	(et)	et	.	.	8f#\	(et)	et	.	.	8dd\	(et)	et	.	.	.	.	.	.	.	.	8dd\J	.	8ff#\J	.	8dd\J	.	8ff#\J	.
!LO:TX:t=P:problem=mixed beam	!	!	!	!	!	!	!	!	!	!	!	!	!	!	!	!	!	!	!	!	!	!	!	!	!	!	!	!	!	!	!	!	!	!	!	!	!	!	!	!	!	!
8A\L	4_	.	8A/L	.	8.d/L	.	8.f#/L	.	4A\	ter-	ter-	.	.	4A\	ter-	ter-	.	.	4f#\	ter-	ter-	.	.	4dd\	Ter-	ter-	.	.	.	.	.	.	.	.	4dd\	.	4ff#\	.	4dd\	.	4ff#\	.
8AA/	.	.	8A/	.	.	.	.	.	.	.	.	.	.	.	.	.	.	.	.	.	.	.	.	.	.	.	.	.	.	.	.	.	.	.	.	.	.	.	.	.	.	.
.	.	.	.	.	32c#/LL	.	32e/LL	.	.	.	.	.	.	.	.	.	.	.	.	.	.	.	.	.	.	.	.	.	.	.	.	.	.	.	.	.	.	.	.	.	.	.
.	.	.	.	.	32d/JJJ	.	32f#/JJJ	.	.	.	.	.	.	.	.	.	.	.	.	.	.	.	.	.	.	.	.	.	.	.	.	.	.	.	.	.	.	.	.	.	.	.
8AA/J	3	.	8A/J	.	8c#/	.	8e/	.	8AA/	-ra	-ra	.	.	8A\	-ra	-ra	.	.	8e\	-ra	-ra	.	.	8cc#\	-ra	-ra	.	.	.	.	.	.	.	.	8cc#\	.	8ee\	.	8cc#\	.	8ee\	.
8r	.	.	8r	.	8r	.	8r	.	8r	.	.	.	.	8r	.	.	.	.	8r	.	.	.	.	8r	.	.	.	.	.	.	.	.	.	.	8r	.	8r	.	8r	.	8r	.
!	!	!	!	!	!	!	!LO:LB:g=original	!	!	!	!	!	!	!	!	!	!	!	!	!	!	!	!	!	!	!	!	!	!	!	!	!	!	!	!	!	!LO:LB:g=original	!	!	!	!LO:LB:g=original	!
=16	=16	=16	=16	=16	=16	=16	=16	=16	=16	=16	=16	=16	=16	=16	=16	=16	=16	=16	=16	=16	=16	=16	=16	=16	=16	=16	=16	=16	=16	=16	=16	=16	=16	=16	=16	=16	=16	=16	=16	=16	=16	=16
!	!	!	!	!	!	!	!	!	!	!	!	!	!	!	!	!	!	!	!	!	!	!	!	!	!	!	!	!	!	!LO:MO:null:mod=!LO&colon;DY&colon;ed=brack	!	!LO:MO:null:mod=!LO&colon;DY&colon;ed=brack	!	!LO:MO:null:mod=!LO&colon;DY&colon;ed=brack	!	!	!	!	!	!	!	!
!	!	!	!	!	!	!	!	!	!	!	!	!	!	!	!	!	!	!	!	!	!	!	!	!	!	!	!	!	!	!	!	!	!	!	!	!	!	!	!	!	!	!
!	!	!LO:DY:a:rj	!	!LO:DY:a:t=for	!	!LO:DY:a	!	!LO:DY:a	!	!	!	!LO:DY:a:t=f&colon;	!	!	!	!	!LO:DY:a:t=f&colon;	!	!	!	!	!LO:DY:a:rj:t=f&colon;	!	!	!	!	!LO:DY:a:t=f&colon;:rj	!	!	!LO:MO:null:mod=f	!	!LO:MO:null:mod=f	!	!LO:MO:null:mod=f	!	!LO:DY:a	!	!LO:DY:a	!	!LO:DY:a:rj	!	!LO:DY:a
8A\L	3_	f	8A/	f	4.e/	f	4.cc#\	f	8A\L	glo-	glo-	f	f	4c#\	glo-	glo-	f	f	4a\	glo-	glo-	f	f	4ee\	glo-	glo-	f	f	4AA/	.	4A/	.	4e\	.	2cc#\	f	2ee\	f	2cc#\	f	2ee\	f
8G\	.	.	4A/	.	.	.	.	.	8G\J	.	.	.	.	.	.	.	.	.	.	.	.	.	.	.	.	.	.	.	.	.	.	.	.	.	.	.	.	.	.	.	.	.
8F#\	.	.	.	.	.	.	.	.	8F#\	-ri-	-ri-	.	.	8c#\	-ri-	-ri-	.	.	8a\	-ri-	-ri-	.	.	8ee\	-ri-	-ri-	.	.	4AA/	.	4A/	.	4e\	.	.	.	.	.	.	.	.	.
8E\J	.	.	4A/	.	16d/LL	.	16b\LL	.	8E\	-a	-a	.	.	8c#\	-a	-a	.	.	8a\	-a	-a	.	.	8ee\	-a	-a	.	.	.	.	.	.	.	.	.	.	.	.	.	.	.	.
.	.	.	.	.	16e/JJ	.	16cc#\JJ	.	.	.	.	.	.	.	.	.	.	.	.	.	.	.	.	.	.	.	.	.	.	.	.	.	.	.	.	.	.	.	.	.	.	.
!	!	!	!	!	!LO:LB:g=original	!	!	!	!	!	!	!	!	!	!	!	!	!	!	!	!	!	!	!	!	!	!	!	!	!	!	!	!	!	!	!	!	!	!	!	!	!
4.D\	3	.	.	.	16f#/LL	.	16dd\LL	.	4.D\	tu-	tu-	.	.	4d\	tu-	tu-	.	.	4a\	tu-	tu-	.	.	4ff#\	tu-	tu-	.	.	4D\	.	4d\	.	4f#\	.	2dd\	.	2ff#\	.	2dd\	.	2ff#\	.
.	.	.	.	.	16e/	.	16cc#\	.	.	.	.	.	.	.	.	.	.	.	.	.	.	.	.	.	.	.	.	.	.	.	.	.	.	.	.	.	.	.	.	.	.	.
.	.	.	4A/	.	16f#/	.	16dd\	.	.	.	.	.	.	.	.	.	.	.	.	.	.	.	.	.	.	.	.	.	.	.	.	.	.	.	.	.	.	.	.	.	.	.
.	.	.	.	.	16g/JJ	.	16ee\JJ	.	.	.	.	.	.	.	.	.	.	.	.	.	.	.	.	.	.	.	.	.	.	.	.	.	.	.	.	.	.	.	.	.	.	.
.	.	.	.	.	8a/L	.	8ff#\L	.	.	.	.	.	.	4d\	-a	-a	.	.	4a\	-a	-a	.	.	4ff#\	-a	-a	.	.	4r	.	4r	.	4r	.	.	.	.	.	.	.	.	.
16E\LL	.	.	8A/	.	8f#/J	.	8dd\J	.	16E\LL	-a	-a	.	.	.	.	.	.	.	.	.	.	.	.	.	.	.	.	.	.	.	.	.	.	.	.	.	.	.	.	.	.	.
16F#\JJ	.	.	.	.	.	.	.	.	16F#\JJ	.	.	.	.	.	.	.	.	.	.	.	.	.	.	.	.	.	.	.	.	.	.	.	.	.	.	.	.	.	.	.	.	.
!LO:LB:g=original	!	!	!LO:LB:g=original	!	!	!	!	!	!	!	!	!	!	!	!	!	!	!	!	!	!	!	!	!	!	!	!	!	!	!	!	!	!	!	!	!	!	!	!LO:LB:g=original	!	!	!
=17	=17	=17	=17	=17	=17	=17	=17	=17	=17	=17	=17	=17	=17	=17	=17	=17	=17	=17	=17	=17	=17	=17	=17	=17	=17	=17	=17	=17	=17	=17	=17	=17	=17	=17	=17	=17	=17	=17	=17	=17	=17	=17
*	*	*	*	*	*	*	*	*	*	*	*	*	*	*	*ij	*ij	*	*	*	*ij	*ij	*	*	*	*ij	*ij	*	*	*	*	*	*	*	*	*	*	*	*	*	*	*	*
!	!	!	!	!	!	!	!	!	!	!	!	!	!	!	!	!	!	!	!	!	!	!	!	!	!	!	!	!	!LO:TX:a:t=2.:mod=	!	!	!	!	!	!	!	!	!	!	!	!	!
8G\L	3_	.	8G/	.	4.d/	.	4.b\	.	8G\L	glo-	glo-	.	.	4B\	glo-	glo-	.	.	4g\	glo-	glo-	.	.	4dd\	glo-	glo-	.	.	0r	.	0r	.	0r	.	2b\	.	2dd\	.	2b\	.	2dd\	.
8E\	.	.	4G/	.	.	.	.	.	8F#\J	.	.	.	.	.	.	.	.	.	.	.	.	.	.	.	.	.	.	.	.	.	.	.	.	.	.	.	.	.	.	.	.	.
8E\	.	.	.	.	.	.	.	.	8E\	-ri-	-ri-	.	.	8B\	-ri-	-ri-	.	.	8g\	-ri-	-ri-	.	.	8dd\	-ri-	-ri-	.	.	.	.	.	.	.	.	.	.	.	.	.	.	.	.
8D\J	.	.	4G/	.	16c#/LL	.	16a\LL	.	8D\	-a	-a	.	.	8B\	-a	-a	.	.	8g\	-a	-a	.	.	8dd\	-a	-a	.	.	.	.	.	.	.	.	.	.	.	.	.	.	.	.
.	.	.	.	.	16d/JJ	.	16b\JJ	.	.	.	.	.	.	.	.	.	.	.	.	.	.	.	.	.	.	.	.	.	.	.	.	.	.	.	.	.	.	.	.	.	.	.
!	!	!	!	!	!	!	!	!	!LO:LB:g=original	!	!	!	!	!	!	!	!	!	!	!	!	!	!	!	!	!	!	!	!	!	!	!	!	!	!	!	!	!	!	!	!	!
4.C#/	x	.	.	.	16e/LL	.	16cc#\LL	.	4.C#/	tu-	tu-	.	.	4c#\	tu-	tu-	.	.	4g\	tu-	tu-	.	.	4ee\	tu-	tu-	.	.	.	.	.	.	.	.	2cc#\	.	2ee\	.	2cc#\	.	2ee\	.
.	.	.	.	.	16d/	.	16b\	.	.	.	.	.	.	.	.	.	.	.	.	.	.	.	.	.	.	.	.	.	.	.	.	.	.	.	.	.	.	.	.	.	.	.
.	.	.	4G/	.	16e/	.	16cc#\	.	.	.	.	.	.	.	.	.	.	.	.	.	.	.	.	.	.	.	.	.	.	.	.	.	.	.	.	.	.	.	.	.	.	.
.	.	.	.	.	16f#/JJ	.	16dd\JJ	.	.	.	.	.	.	.	.	.	.	.	.	.	.	.	.	.	.	.	.	.	.	.	.	.	.	.	.	.	.	.	.	.	.	.
.	.	.	.	.	8g/L	.	8ee\L	.	.	.	.	.	.	4c#\	-a	-a	.	.	4g\	-a	-a	.	.	4ee\	-a	-a	.	.	.	.	.	.	.	.	.	.	.	.	.	.	.	.
16D\LL	.	.	8G/	.	8e/J	.	8cc#\J	.	16D\LL	-a	-a	.	.	.	.	.	.	.	.	.	.	.	.	.	.	.	.	.	.	.	.	.	.	.	.	.	.	.	.	.	.	.
16E\JJ	.	.	.	.	.	.	.	.	16E\JJ	.	.	.	.	.	.	.	.	.	.	.	.	.	.	.	.	.	.	.	.	.	.	.	.	.	.	.	.	.	.	.	.	.
=18	=18	=18	=18	=18	=18	=18	=18	=18	=18	=18	=18	=18	=18	=18	=18	=18	=18	=18	=18	=18	=18	=18	=18	=18	=18	=18	=18	=18	=18	=18	=18	=18	=18	=18	=18	=18	=18	=18	=18	=18	=18	=18
8F#\L	3_	.	8F#/	.	4.c#/	.	4.a/	.	8F#\L	glo-	glo-	.	.	4A\	glo-	glo-	.	.	4f#\	glo-	glo-	.	.	4cc#\	glo-	glo-	.	.	.	.	.	.	.	.	2a\	.	2cc#\	.	2a/	.	2cc#\	.
8E\	.	.	4F#/	.	.	.	.	.	8E\J	.	.	.	.	.	.	.	.	.	.	.	.	.	.	.	.	.	.	.	.	.	.	.	.	.	.	.	.	.	.	.	.	.
8D\	.	.	.	.	.	.	.	.	8D\	-ri-	-ri-	.	.	8A\	-ri-	-ri-	.	.	8f#\	-ri-	-ri-	.	.	8cc#\	-ri-	-ri-	.	.	.	.	.	.	.	.	.	.	.	.	.	.	.	.
8C#\J	.	.	4F#/	.	16B/LL	.	16g/LL	.	8C#/	-a	-a	.	.	8A\	-a	-a	.	.	8f#\	-a	-a	.	.	8cc#\	-a	-a	.	.	.	.	.	.	.	.	.	.	.	.	.	.	.	.
.	.	.	.	.	16c#/JJ	.	16a/JJ	.	.	.	.	.	.	.	.	.	.	.	.	.	.	.	.	.	.	.	.	.	.	.	.	.	.	.	.	.	.	.	.	.	.	.
4.BB/	x	.	.	.	16d/LL	.	16b\LL	.	4.BB/	tu-	tu-	.	.	4B\	tu-	tu-	.	.	4f#\	tu-	tu-	.	.	4dd\	tu-	tu-	.	.	.	.	.	.	.	.	2b\	.	2dd\	.	2b\	.	2dd\	.
.	.	.	.	.	16c#/	.	16a\	.	.	.	.	.	.	.	.	.	.	.	.	.	.	.	.	.	.	.	.	.	.	.	.	.	.	.	.	.	.	.	.	.	.	.
.	.	.	4F#/	.	16d/	.	16b\	.	.	.	.	.	.	.	.	.	.	.	.	.	.	.	.	.	.	.	.	.	.	.	.	.	.	.	.	.	.	.	.	.	.	.
.	.	.	.	.	16e/JJ	.	16cc#\JJ	.	.	.	.	.	.	.	.	.	.	.	.	.	.	.	.	.	.	.	.	.	.	.	.	.	.	.	.	.	.	.	.	.	.	.
.	.	.	.	.	8f#/L	.	8dd\L	.	.	.	.	.	.	4B\	-a	-a	.	.	4f#\	-a	-a	.	.	4dd\	-a	-a	.	.	.	.	.	.	.	.	.	.	.	.	.	.	.	.
*	*	*	*	*	*	*	*	*	*	*	*	*	*	*	*Xij	*Xij	*	*	*	*Xij	*Xij	*	*	*	*Xij	*Xij	*	*	*	*	*	*	*	*	*	*	*	*	*	*	*	*
16C#/LL	.	.	8F#/	.	8d/J	.	8b\J	.	16C#/LL	-a	-a	.	.	.	.	.	.	.	.	.	.	.	.	.	.	.	.	.	.	.	.	.	.	.	.	.	.	.	.	.	.	.
16D/JJ	.	.	.	.	.	.	.	.	16D/JJ	.	.	.	.	.	.	.	.	.	.	.	.	.	.	.	.	.	.	.	.	.	.	.	.	.	.	.	.	.	.	.	.	.
!	!	!	!	!	!	!	!	!	!	!	!	!	!	!LO:LB:g=original	!	!	!	!	!	!	!	!	!	!	!	!	!	!	!	!	!	!	!	!	!	!	!	!	!	!	!	!
=19	=19	=19	=19	=19	=19	=19	=19	=19	=19	=19	=19	=19	=19	=19	=19	=19	=19	=19	=19	=19	=19	=19	=19	=19	=19	=19	=19	=19	=19	=19	=19	=19	=19	=19	=19	=19	=19	=19	=19	=19	=19	=19
8E/L	#_	.	8E/	.	4.B/	.	4.g#X/	.	8E\L	glo-	glo-	.	.	4G/	glo-	glo-	.	.	4e\	glo-	glo-	.	.	4b\	glo-	glo-	.	.	2r	.	2r	.	2r	.	2g#\	.	2b\	.	2g#X/	.	2b\	.
8D/	.	.	4E/	.	.	.	.	.	8D\J	.	.	.	.	.	.	.	.	.	.	.	.	.	.	.	.	.	.	.	.	.	.	.	.	.	.	.	.	.	.	.	.	.
8C#/	.	.	.	.	.	.	.	.	8C#/	-ri-	-ri-	.	.	8G/	-ri-	-ri-	.	.	8e\	-ri-	-ri-	.	.	8b\	-ri-	-ri-	.	.	.	.	.	.	.	.	.	.	.	.	.	.	.	.
8BB/J	.	.	4E/	.	16A/LL	.	16f#/LL	.	8BB/	-a	-a	.	.	8G/	-a	-a	.	.	8e\	-a	-a	.	.	8b\	-a	-a	.	.	.	.	.	.	.	.	.	.	.	.	.	.	.	.
.	.	.	.	.	16B/JJ	.	16g#/JJ	.	.	.	.	.	.	.	.	.	.	.	.	.	.	.	.	.	.	.	.	.	.	.	.	.	.	.	.	.	.	.	.	.	.	.
!	!	!	!	!	!	!	!	!	!	!	!	!	!	!	!	!	!	!	!LO:LB:g=original	!	!	!	!	!LO:LB:g=original	!	!	!	!	!	!	!	!	!	!	!	!	!	!	!	!	!	!
4.AA/	x	.	.	.	16c#/LL	.	16a/LL	.	4.AA/	tu-	tu-	.	.	4A\	tu-	tu-	.	.	4e\	tu-	tu-	.	.	4cc#\	tu-	tu-	.	.	4r	.	4r	.	4r	.	2a\	.	2cc#\	.	2a/	.	2cc#\	.
.	.	.	.	.	16B/	.	16g#/	.	.	.	.	.	.	.	.	.	.	.	.	.	.	.	.	.	.	.	.	.	.	.	.	.	.	.	.	.	.	.	.	.	.	.
.	.	.	4E/	.	16c#/	.	16a/	.	.	.	.	.	.	.	.	.	.	.	.	.	.	.	.	.	.	.	.	.	.	.	.	.	.	.	.	.	.	.	.	.	.	.
.	.	.	.	.	16d/JJ	.	16b/JJ	.	.	.	.	.	.	.	.	.	.	.	.	.	.	.	.	.	.	.	.	.	.	.	.	.	.	.	.	.	.	.	.	.	.	.
.	.	.	.	.	8e/L	.	8cc#/L	.	.	.	.	.	.	4A\	-a	-a	.	.	4e\	-a	-a	.	.	4cc#\	-a	-a	.	.	4AA/	.	4A/	.	4e\	.	.	.	.	.	.	.	.	.
!	!	!	!	!	!	!	!LO:TX:b:i:t=Verte Cito:mod=	!	!	!	!	!	!	!	!	!	!	!	!	!	!	!	!	!	!	!	!	!	!	!	!	!	!	!	!	!	!	!	!	!	!	!
16BB/LL	6 5	.	8E/	.	8c#/J	.	8a/J	.	16BB/LL	-a	-a	.	.	.	.	.	.	.	.	.	.	.	.	.	.	.	.	.	.	.	.	.	.	.	.	.	.	.	.	.	.	.
16C#/JJ	.	.	.	.	.	.	.	.	16C#/JJ	.	.	.	.	.	.	.	.	.	.	.	.	.	.	.	.	.	.	.	.	.	.	.	.	.	.	.	.	.	.	.	.	.
!	!	!	!	!	!	!	!LO:PB:g=original	!	!	!	!	!	!	!	!	!	!	!	!	!	!	!	!	!	!	!	!	!	!LO:LB:g=original	!	!	!	!	!	!	!	!	!	!	!	!	!
=20	=20	=20	=20	=20	=20	=20	=20	=20	=20	=20	=20	=20	=20	=20	=20	=20	=20	=20	=20	=20	=20	=20	=20	=20	=20	=20	=20	=20	=20	=20	=20	=20	=20	=20	=20	=20	=20	=20	=20	=20	=20	=20
8D\L	3	.	8A/L	.	8f#/L	.	4dd\	.	4D\	glo-	glo-	.	.	4A\	glo-	glo-	.	.	4f#\	glo-	glo-	.	.	4dd\	glo-	glo-	.	.	4D\	.	4d\	.	4f#\	.	4f#\	.	4dd\	.	4f#/	.	4dd\	.
8D\	.	.	8A/	.	8f#/	.	.	.	.	.	.	.	.	.	.	.	.	.	.	.	.	.	.	.	.	.	.	.	.	.	.	.	.	.	.	.	.	.	.	.	.	.
8E\	6_ 3_	.	8A/	.	8g/	.	16cc#\LL	.	8E\	-ri-	-ri-	.	.	8A\	-ri-	-ri-	.	.	8g\	-ri-	-ri-	.	.	8cc#\	-ri-	-ri-	.	.	4AA/	.	4e\	.	4g\	.	4gnX\	.	4cc#\	.	4gn/	.	4cc#\	.
.	.	.	.	.	.	.	16dd\	.	.	.	.	.	.	.	.	.	.	.	.	.	.	.	.	.	.	.	.	.	.	.	.	.	.	.	.	.	.	.	.	.	.	.
8E\J	.	.	8A/J	.	8g/J	.	16ee\	.	8E\	-a	-a	.	.	8A\	-a	-a	.	.	8g\	-a	-a	.	.	8cc#\	-a	-a	.	.	.	.	.	.	.	.	.	.	.	.	.	.	.	.
.	.	.	.	.	.	.	16cc#\JJ	.	.	.	.	.	.	.	.	.	.	.	.	.	.	.	.	.	.	.	.	.	.	.	.	.	.	.	.	.	.	.	.	.	.	.
*	*	*	*	*	*	*	*	*	*	*ij	*ij	*	*	*	*ij	*ij	*	*	*	*ij	*ij	*	*	*	*ij	*ij	*	*	*	*	*	*	*	*	*	*	*	*	*	*	*	*
8F#\L	6_	.	8A/L	.	8a\L	.	16dd\LL	.	4F#\	glo-	glo-	.	.	4A\	glo-	glo-	.	.	4a\	glo-	glo-	.	.	4dd\	glo-	glo-	.	.	4D\	.	4f#\	.	4a\	.	4a\	.	4dd\	.	4a/	.	4dd\	.
.	.	.	.	.	.	.	16cc#\	.	.	.	.	.	.	.	.	.	.	.	.	.	.	.	.	.	.	.	.	.	.	.	.	.	.	.	.	.	.	.	.	.	.	.
8F#\	.	.	8A/	.	8a\	.	16dd\	.	.	.	.	.	.	.	.	.	.	.	.	.	.	.	.	.	.	.	.	.	.	.	.	.	.	.	.	.	.	.	.	.	.	.
.	.	.	.	.	.	.	16ee\JJ	.	.	.	.	.	.	.	.	.	.	.	.	.	.	.	.	.	.	.	.	.	.	.	.	.	.	.	.	.	.	.	.	.	.	.
8D\	x	.	8A/	.	8dd\	.	8ff#\L	.	8D\	-ri-	-ri-	.	.	8A\	-ri-	-ri-	.	.	8f#\	-ri-	-ri-	.	.	8dd\	-ri-	-ri-	.	.	4D\	.	4d\	.	4f#\	.	4dd\	.	4ff#\	.	4dd\	.	4ff#\	.
8D\J	.	.	8A/J	.	8dd\J	.	8aa\J	.	8D\	-a	-a	.	.	8A\	-a	-a	.	.	8f#\	-a	-a	.	.	8dd\	-a	-a	.	.	.	.	.	.	.	.	.	.	.	.	.	.	.	.
*	*	*	*	*	*	*	*	*	*	*Xij	*Xij	*	*	*	*Xij	*Xij	*	*	*	*Xij	*Xij	*	*	*	*Xij	*Xij	*	*	*	*	*	*	*	*	*	*	*	*	*	*	*	*
!	!	!	!	!	!LO:LB:g=original	!	!	!	!	!LO:LB:g=original	!LO:LB:g=original	!	!	!	!	!	!	!	!	!	!	!	!	!	!	!	!	!	!	!	!	!	!	!	!LO:LB:g=original	!	!	!	!	!	!	!
=21	=21	=21	=21	=21	=21	=21	=21	=21	=21	=21	=21	=21	=21	=21	=21	=21	=21	=21	=21	=21	=21	=21	=21	=21	=21	=21	=21	=21	=21	=21	=21	=21	=21	=21	=21	=21	=21	=21	=21	=21	=21	=21
!LO:TX:t=P:problem=mixed beam	!	!	!	!	!	!	!	!	!	!	!	!	!	!LO:SIC:s=4B	!	!	!	!	!	!	!	!	!	!	!	!	!	!	!	!	!	!	!	!	!	!	!	!	!	!	!	!
8G\L	6_	.	8B/L	.	8b/L	.	8gg\L	.	4G\	tu-	tu-	.	.	(4B\	tu-	tu-	.	.	4g\	tu-	tu-	.	.	4ee\	tu-	tu-	.	.	4AA/	.	4e\	.	4g\	.	4ee\	.	4gg\	.	4ee\	.	4gg\	.
8G\	.	.	8B/	.	16b/L	.	16gg\L	.	.	.	.	.	.	.	.	.	.	.	.	.	.	.	.	.	.	.	.	.	.	.	.	.	.	.	.	.	.	.	.	.	.	.
.	.	.	.	.	16g/JJ	.	16ee\JJ	.	.	.	.	.	.	.	.	.	.	.	.	.	.	.	.	.	.	.	.	.	.	.	.	.	.	.	.	.	.	.	.	.	.	.
!	!	!	!	!	!	!	!	!	!LO:TX:t=P:problem=mixed beam	!	!	!	!	!LO:SIC:s=4A	!	!	!	!	!	!	!	!	!	!	!	!	!	!	!	!	!	!	!	!	!	!	!	!	!	!	!	!
8A\	4	.	8A/	.	8f#/L	.	(16ee\LL	.	8A\L	.	.	.	.	4A\)	.	.	.	.	8f#\L	.	.	.	.	8dd\L	.	.	.	.	8D\L	.	8d\L	.	8f#\L	.	8dd\L	.	8ff#\L	.	8dd\L	.	8ff#\L	.
.	.	.	.	.	.	.	16dd\)	.	.	.	.	.	.	.	.	.	.	.	.	.	.	.	.	.	.	.	.	.	.	.	.	.	.	.	.	.	.	.	.	.	.	.
8AA/J	3	.	8A/J	.	8e/J	.	(16dd\	.	8AA/J	.	.	.	.	.	.	.	.	.	8e\J	.	.	.	.	8cc#\J	.	.	.	.	8AA\J	.	8A\J	.	8e\J	.	8cc#\J	.	8ee\J	.	8cc#\J	.	8ee\J	.
.	.	.	.	.	.	.	16cc#\JJ)	.	.	.	.	.	.	.	.	.	.	.	.	.	.	.	.	.	.	.	.	.	.	.	.	.	.	.	.	.	.	.	.	.	.	.
!	!	!	!	!	!	!LO:DY:a	!LO:TX:t=P:problem=mixed beam	!	!	!	!	!	!	!	!	!	!	!	!LO:TX:a:i:t=Solo&colon;:mod=	!	!	!	!	!LO:TX:a:i:t=Solo&colon;:mod=	!	!	!	!	!	!	!	!	!	!	!LO:TX:a:i:t=Solo&colon;:mod=	!	!LO:TX:a:i:t=Solo&colon;:mod=	!	!LO:TX:a:i:t=Solo&colon;:mod=	!	!LO:TX:a:i:t=Solo&colon;:mod=	!
!	!	!	!	!	!	!LO:MO:null:mod=.	!	!	!	!	!	!	!	!	!	!	!	!	!	!	!	!	!	!	!	!	!	!	!	!	!	!	!	!	!	!	!	!	!	!	!	!
4D\	.	.	4A/	.	8f#/L	p	8dd\L	.	4D\	-a	-a.	.	.	4A\	-a	-a.	.	.	8f#\	-a	-a.	.	.	8dd\	-a	-a.	.	.	4D\	.	4F#/	.	4d\	.	8dd\L	.	8ff#\L	.	8dd\L	.	8ff#\L	.
!	!	!	!	!	!	!	!	!	!	!	!	!	!	!	!	!	!	!	!	!	!	!	!	!	!	!	!	!	!	!	!	!	!	!	!	!LO:MO:null:mod=!LO&colon;DY&colon;ed=brack	!	!LO:MO:null:mod=!LO&colon;DY&colon;ed=brack	!	!LO:MO:null:mod=!LO&colon;DY&colon;ed=brack	!	!LO:MO:null:mod=!LO&colon;DY&colon;ed=brack
!	!	!	!	!	!	!	!	!	!	!	!	!	!	!	!	!	!	!	!	!	!	!	!	!	!	!	!	!	!	!	!	!	!	!	!	!	!	!	!	!	!	!
!	!	!	!	!	!	!LO:MO:null:mod=p	!	!LO:DY:a:t=p&colon;	!	!	!	!	!	!	!	!	!	!	!	!	!	!	!LO:DY:ed=brack	!	!	!	!	!LO:DY:ed=brack	!	!	!	!	!	!	!	!LO:MO:null:mod=p	!	!LO:MO:null:mod=p	!	!LO:MO:null:mod=p	!	!LO:MO:null:mod=p
.	.	.	.	.	16d/L	.	16f#/L	p	.	.	.	.	.	.	.	.	.	.	16f#\LL	Oſ-	Ho-	.	p	16dd\LL	Oſ-	Ho-	.	p	.	.	.	.	.	.	16dd\L	.	16ff#\L	.	16dd\L	.	16ff#\L	.
.	.	.	.	.	16c#/JJ	.	16e/JJ	.	.	.	.	.	.	.	.	.	.	.	16e\JJ	.	.	.	.	16cc#\JJ	.	.	.	.	.	.	.	.	.	.	16cc#\JJ	.	16ee\JJ	.	16cc#\JJ	.	16ee\JJ	.
4r	.	.	4r	.	8d/L	.	8f#/L	.	4r	.	.	.	.	4r	.	.	.	.	8f#\L	.	.	.	.	8dd\L	.	.	.	.	4r	.	4r	.	4r	.	8dd\L	.	8ff#\L	.	8dd\L	.	8ff#\L	.
.	.	.	.	.	8e/J	.	8g/J	.	.	.	.	.	.	.	.	.	.	.	8g\J	.	.	.	.	8ee\J	.	.	.	.	.	.	.	.	.	.	8ee\J	.	8gg\J	.	8ee\J	.	8gg\J	.
=22	=22	=22	=22	=22	=22	=22	=22	=22	=22	=22	=22	=22	=22	=22	=22	=22	=22	=22	=22	=22	=22	=22	=22	=22	=22	=22	=22	=22	=22	=22	=22	=22	=22	=22	=22	=22	=22	=22	=22	=22	=22	=22
!	!	!LO:DY:a:rj	!	!LO:DY:a:t=p&colon;	!	!	!	!	!	!	!	!	!	!	!	!	!	!	!	!	!	!	!	!	!	!	!	!	!LO:TX:a:t=2.:mod=	!	!	!	!LO:TX:b:i:t=Verte:mod=	!	!	!	!	!	!	!	!	!
!	!	!LO:MO:null:mod=.	!	!LO:MO:null:mod=.	!LO:SIC:s=(4.f#	!	!	!	!	!	!	!	!	!	!	!	!	!	!	!	!	!	!	!LO:SIC:s=(4.ff#	!	!	!	!	!	!	!	!	!	!	!LO:SIC:s=(4.ff#	!	!LO:SIC:s=(4.aa	!	!LO:SIC:s=(4.ff#	!	!LO:SIC:s=(4.aa	!
8r	.	p	8r	p	4.f#/	.	(4.a/	.	0r	.	.	.	.	0r	.	.	.	.	(4.a\	-san-	-san-	.	.	4.ff#\	-san-	-san-	.	.	0r	.	1r	.	1r	.	4.ff#\	.	4.aa\	.	4.ff#\	.	4.aa\	.
!	!	!LO:MO:null:mod=p	!	!LO:MO:null:mod=p	!	!	!	!	!	!	!	!	!	!	!	!	!	!	!	!	!	!	!	!	!	!	!	!	!	!	!	!	!	!	!	!	!	!	!	!	!	!
8D\L	.	.	8A/L	.	.	.	.	.	.	.	.	.	.	.	.	.	.	.	.	.	.	.	.	.	.	.	.	.	.	.	.	.	.	.	.	.	.	.	.	.	.	.
8d\	.	.	8A/	.	.	.	.	.	.	.	.	.	.	.	.	.	.	.	.	.	.	.	.	.	.	.	.	.	.	.	.	.	.	.	.	.	.	.	.	.	.	.
!	!	!	!	!	!	!	!	!	!	!	!	!	!	!	!	!	!	!	!LO:SIC:s=16gLL	!	!	!	!	!	!	!	!	!	!	!	!	!	!	!	!	!	!	!	!	!	!	!
8D\J	.	.	8A/J	.	16e/LL	.	16g/LL	.	.	.	.	.	.	.	.	.	.	.	16g\LL)	.	.	.	.	16ee\LL	.	.	.	.	.	.	.	.	.	.	16ee\LL	.	16gg\LL	.	16ee\LL	.	16gg\LL	.
!	!	!	!	!	!LO:SIC:s=16dJJ)	!	!	!	!	!	!	!	!	!	!	!	!	!	!LO:SIC:s=16f#JJ)	!	!	!	!	!LO:SIC:s=16ddJJ)	!	!	!	!	!	!	!	!	!	!	!LO:SIC:s=16ddJJ)	!	!LO:SIC:s=16ff#JJ)	!	!LO:SIC:s=16ddJJ)	!	!LO:SIC:s=16ff#JJ)	!
.	.	.	.	.	16d/JJ	.	16f#/JJ)	.	.	.	.	.	.	.	.	.	.	.	16f#\JJ	.	.	.	.	16dd\JJ	.	.	.	.	.	.	.	.	.	.	16dd\JJ	.	16ff#\JJ	.	16dd\JJ	.	16ff#\JJ	.
!LO:LB:g=original	!	!	!LO:LB:g=original	!	!	!	!	!	!	!	!	!	!	!	!	!	!	!	!	!	!	!	!	!	!	!	!	!	!	!	!	!	!	!	!	!	!LO:LB:g=original	!	!	!	!	!
4A\	.	.	4A/	.	8c#/L	.	8e/L	.	.	.	.	.	.	.	.	.	.	.	8e\	-na	-na	.	.	8cc#\	-na	-na	.	.	.	.	.	.	.	.	8cc#\L	.	8ee\L	.	8cc#\L	.	8ee\L	.
.	.	.	.	.	16c#/L	.	16e/L	.	.	.	.	.	.	.	.	.	.	.	16e\LL	Oſ-	ho-	.	.	16cc#\LL	oſ-	ho-	.	.	.	.	.	.	.	.	16cc#\L	.	16ee\L	.	16cc#\L	.	16ee\L	.
.	.	.	.	.	16B/JJ	.	16d/JJ	.	.	.	.	.	.	.	.	.	.	.	16d\JJ	.	.	.	.	16b\JJ	.	.	.	.	.	.	.	.	.	.	16b\JJ	.	16dd\JJ	.	16b\JJ	.	16dd\JJ	.
4r	.	.	4r	.	8c#/L	.	8e/L	.	.	.	.	.	.	.	.	.	.	.	8e\L	.	.	.	.	8cc#\L	.	.	.	.	.	.	.	.	.	.	8cc#\L	.	8ee\L	.	8cc#\L	.	8ee\L	.
.	.	.	.	.	8d/J	.	8f#/J	.	.	.	.	.	.	.	.	.	.	.	8f#\J	.	.	.	.	8dd\J	.	.	.	.	.	.	.	.	.	.	8dd\J	.	8ff#\J	.	8dd\J	.	8ff#\J	.
!	!	!	!	!	!	!	!	!	!	!	!	!	!	!	!	!	!	!	!	!	!	!	!	!	!	!	!	!	!	!	!LO:LB:g=original	!	!LO:PB:g=original	!	!	!	!	!	!	!	!	!
=23	=23	=23	=23	=23	=23	=23	=23	=23	=23	=23	=23	=23	=23	=23	=23	=23	=23	=23	=23	=23	=23	=23	=23	=23	=23	=23	=23	=23	=23	=23	=23	=23	=23	=23	=23	=23	=23	=23	=23	=23	=23	=23
!	!	!	!	!	!LO:SIC:s=(4.e	!	!	!	!	!	!	!	!	!	!	!	!	!	!LO:SIC:s=(4.g	!	!	!	!	!LO:SIC:s=(4.ee	!	!	!	!	!	!	!	!	!	!	!LO:SIC:s=(4.ee	!	!LO:SIC:s=(4.gg	!	!LO:SIC:s=(4.ee	!	!LO:SIC:s=(4.gg	!
8r	.	.	8r	.	4.e/	.	(4.g/	.	.	.	.	.	.	.	.	.	.	.	4.g\	-san-	-san-	.	.	4.ee\	-san-	-san-	.	.	.	.	2r	.	2r	.	4.ee\	.	4.gg\	.	4.ee\	.	4.gg\	.
!LO:TX:t=P:problem=mixed beam	!	!	!	!	!	!	!	!	!	!	!	!	!	!	!	!	!	!	!	!	!	!	!	!	!	!	!	!	!	!	!	!	!	!	!	!	!	!	!	!	!	!
8A\L	.	.	8A/L	.	.	.	.	.	.	.	.	.	.	.	.	.	.	.	.	.	.	.	.	.	.	.	.	.	.	.	.	.	.	.	.	.	.	.	.	.	.	.
8AA/	.	.	8A/	.	.	.	.	.	.	.	.	.	.	.	.	.	.	.	.	.	.	.	.	.	.	.	.	.	.	.	.	.	.	.	.	.	.	.	.	.	.	.
8A\J	.	.	8A/J	.	16f#/LL	.	16a/LL	.	.	.	.	.	.	.	.	.	.	.	16a\LL	.	.	.	.	16ff#\LL	.	.	.	.	.	.	.	.	.	.	16ff#\LL	.	16aa\LL	.	16ff#\LL	.	16aa\LL	.
!	!	!	!	!	!LO:SIC:s=16eJJ)	!	!	!	!	!	!	!	!	!	!	!	!	!	!LO:SIC:s=16gJJ)	!	!	!	!	!LO:SIC:s=16eeJJ)	!	!	!	!	!	!	!	!	!	!	!LO:SIC:s=16eeJJ)	!	!LO:SIC:s=16ggJJ)	!	!LO:SIC:s=16eeJJ)	!	!LO:SIC:s=LO:SIC:s=16ggJJ)	!
.	.	.	.	.	16e/JJ	.	16g/JJ)	.	.	.	.	.	.	.	.	.	.	.	16g\JJ	.	.	.	.	16ee\JJ	.	.	.	.	.	.	.	.	.	.	16ee\JJ	.	16gg\JJ	.	16ee\JJ	.	16gg\JJ	.
!	!	!	!	!	!	!	!	!	!	!	!	!	!	!	!	!	!	!	!LO:LB:g=original	!	!	!	!	!LO:LB:g=original	!	!	!	!	!	!	!	!	!	!	!	!	!	!	!	!	!LO:LB:g=original	!
4D\	.	.	4A/	.	8d/L	.	8f#/L	.	.	.	.	.	.	.	.	.	.	.	8f#\	-na	-na	.	.	8dd\	-na	-na	.	.	.	.	8r	.	8r	.	8dd\L	.	8ff#\L	.	8dd\L	.	8ff#\L	.
!	!	!	!	!	!	!	!	!	!	!	!	!	!	!	!	!	!	!	!	!	!	!	!	!	!	!	!	!	!	!	!LO:TX:a:i:t=Sol&colon;:mod=	!	!LO:TX:a:i:t=Solo&colon;:mod=	!	!	!	!	!	!	!	!	!
.	.	.	.	.	16d/L	.	16f#/L	.	.	.	.	.	.	.	.	.	.	.	16f#\LL	oſ-	ho-	.	.	16dd\LL	oſ-	ho-	.	.	.	.	16d\LL	.	16f#\LL	.	16dd\L	.	16ff#\L	.	16dd\L	.	16ff#\L	.
.	.	.	.	.	16c#/JJ	.	16e/JJ	.	.	.	.	.	.	.	.	.	.	.	16e\JJ	.	.	.	.	16cc#\JJ	.	.	.	.	.	.	16A\JJ	.	16e\JJ	.	16cc#\JJ	.	16ee\JJ	.	16cc#\JJ	.	16ee\JJ	.
4r	.	.	4r	.	8d/L	.	8f#/L	.	.	.	.	.	.	.	.	.	.	.	8f#\L	.	.	.	.	8dd\L	.	.	.	.	.	.	8d\L	.	8f#\L	.	8dd\L	.	8ff#\L	.	8dd\L	.	8ff#\L	.
.	.	.	.	.	8e/J	.	8g/J	.	.	.	.	.	.	.	.	.	.	.	8g\J	.	.	.	.	8ee\J	.	.	.	.	.	.	8e\J	.	8g\J	.	8ee\J	.	8gg\J	.	8ee\J	.	8gg\J	.
!	!	!	!	!	!	!	!	!	!	!	!	!	!	!	!	!	!	!	!	!	!	!	!	!	!	!	!	!	!	!	!	!	!	!	!	!	!	!	!LO:LB:g=original	!	!	!
=24	=24	=24	=24	=24	=24	=24	=24	=24	=24	=24	=24	=24	=24	=24	=24	=24	=24	=24	=24	=24	=24	=24	=24	=24	=24	=24	=24	=24	=24	=24	=24	=24	=24	=24	=24	=24	=24	=24	=24	=24	=24	=24
*	*	*	*	*	*	*	*	*	*	*	*	*	*	*	*	*	*	*	*	*	*	*	*	*	*	*	*	*	*tremolo	*	*2\right	*	*	*	*	*	*	*	*	*	*	*
!	!	!	!	!	!	!	!	!	!	!	!	!	!	!	!	!	!	!	!	!	!	!	!	!	!	!	!	!	!	!LO:MO:null:mod=!LO&colon;DY&colon;ed=brack	!	!	!	!	!	!	!	!	!	!	!	!
!	!	!	!	!	!	!	!	!	!	!	!	!	!	!	!	!	!	!	!	!	!	!	!	!	!	!	!	!	!	!	!	!	!	!	!	!	!	!	!	!	!	!
!LO:TX:a:i:t=tutti	!	!	!	!	!LO:SIC:s=(4.f#	!LO:MO:null:mod=f	!	!LO:DY:a	!	!	!	!	!	!	!	!	!	!	!	!	!	!	!LO:DY:ed=brack	!	!	!	!	!	!	!LO:MO:null:mod=f	!	!LO:DY:a:t=f&colon;	!	!LO:DY:a	!	!LO:DY:a	!LO:SIC:s=(4.aa	!LO:DY:a	!	!LO:DY:a	!	!LO:DY:a:rj
8r	.	.	8r	.	4.f#/	.	(4.a/	f	8r	.	.	.	.	8r	.	.	.	.	4.a\	-san-	-san-	.	f	4.ff#\	-san-	-san-	.	.	16D\LL	.	2f#\	f	2a\	f	2ff#\	f	4.aa\	f	2ff#\	f	2aa\	f
.	.	.	.	.	.	.	.	.	.	.	.	.	.	.	.	.	.	.	.	.	.	.	.	.	.	.	.	.	16D\	.	.	.	.	.	.	.	.	.	.	.	.	.
!	!	!LO:MO:null:mod=!LO&colon;DY&colon;ed=brack	!	!	!	!	!	!	!	!	!	!	!	!	!	!	!	!	!	!	!	!	!	!	!	!	!	!	!	!	!	!	!	!	!	!	!	!	!	!	!	!
!	!	!	!	!	!	!	!	!	!	!	!	!	!	!	!	!	!	!	!	!	!	!	!	!	!	!	!	!	!	!	!	!	!	!	!	!	!	!	!	!	!	!
!	!	!LO:MO:null:mod=f	!	!LO:DY:a:t=for.	!	!	!	!	!	!	!	!	!LO:DY:ed=brack	!	!	!	!	!LO:DY:ed=brack	!	!	!	!	!	!	!	!	!	!	!	!	!	!	!	!	!	!	!	!	!	!	!	!
8D\L	.	.	8A/L	f	.	.	.	.	8D\	o-	Ho-	.	f	8A\	O-	Ho-	.	f	.	.	.	.	.	.	.	.	.	.	16D\	.	.	.	.	.	.	.	.	.	.	.	.	.
.	.	.	.	.	.	.	.	.	.	.	.	.	.	.	.	.	.	.	.	.	.	.	.	.	.	.	.	.	16D\	.	.	.	.	.	.	.	.	.	.	.	.	.
8D\	.	.	8A/	.	.	.	.	.	8D\	-ſan-	-san-	.	.	8A\	-ſan-	-san-	.	.	.	.	.	.	.	.	.	.	.	.	16D\	.	.	.	.	.	.	.	.	.	.	.	.	.
.	.	.	.	.	.	.	.	.	.	.	.	.	.	.	.	.	.	.	.	.	.	.	.	.	.	.	.	.	16D\	.	.	.	.	.	.	.	.	.	.	.	.	.
!	!	!	!	!	!	!LO:DY:a	!	!	!	!	!	!	!	!	!	!	!	!	!	!	!	!	!	!	!	!	!	!	!	!	!	!	!	!	!	!	!	!	!	!	!	!
!	!	!	!	!	!	!LO:MO:null:mod=.	!	!	!	!	!	!	!	!	!	!	!	!	!	!	!	!	!	!	!	!	!	!	!	!	!	!	!	!	!	!	!	!	!	!	!	!
8D\J	.	.	8A/J	.	16e/LL	f	16g/LL	.	8D\	-na	-na	.	.	8A\	-na	-na	.	.	16g\LL	-na	-na	.	.	16ee\LL	-na	-na	.	.	16D\	.	.	.	.	.	.	.	16gg\LL	.	.	.	.	.
!	!	!	!	!	!LO:SIC:s=16dJJ)	!	!	!	!	!	!	!	!	!	!	!	!	!	!	!	!	!	!	!	!	!	!	!	!	!	!	!	!	!	!	!	!LO:SIC:s=16ff#JJ)	!	!	!	!	!
.	.	.	.	.	16d/JJ	.	16f#/JJ)	.	.	.	.	.	.	.	.	.	.	.	16f#\JJ	.	.	.	.	16dd\JJ	.	.	.	.	16D\JJ	.	.	.	.	.	.	.	16ff#\JJ	.	.	.	.	.
*	*	*	*tremolo	*	*	*	*	*	*	*	*	*	*	*	*	*	*	*	*	*	*	*	*	*	*	*	*	*	*	*	*	*	*	*	*	*	*	*	*	*	*	*
!	!	!	!	!	!	!	!LO:LB:g=original	!	!	!	!	!	!	!LO:LB:g=original	!	!	!	!	!	!	!	!	!	!	!	!	!	!	!	!	!	!	!	!	!	!	!	!	!	!	!	!
8A\L	3_	.	8A/L	.	8c#/L	.	8e/L	.	4A\	in	in	.	.	4A\	in	in	.	.	4e\	in	in	.	.	4cc#\	in	in	.	.	16AA/LL	.	2e\	.	2g\	.	2ee\	.	2gg\	.	2ee\	.	2gg\	.
.	.	.	.	.	.	.	.	.	.	.	.	.	.	.	.	.	.	.	.	.	.	.	.	.	.	.	.	.	16AA/	.	.	.	.	.	.	.	.	.	.	.	.	.
8A\	.	.	8A/	.	16d/L	.	16f#/L	.	.	.	.	.	.	.	.	.	.	.	.	.	.	.	.	.	.	.	.	.	16AA/	.	.	.	.	.	.	.	.	.	.	.	.	.
.	.	.	.	.	16e/JJ	.	16g/JJ	.	.	.	.	.	.	.	.	.	.	.	.	.	.	.	.	.	.	.	.	.	16AA/	.	.	.	.	.	.	.	.	.	.	.	.	.
8A\	.	.	8A/	.	8f#/L	.	8a/L	.	4A\	ex-	ex-	.	.	4A\	ex-	ex-	.	.	4g\	ex-	ex-	.	.	4ee\	ex-	ex-	.	.	16AA/	.	.	.	.	.	.	.	.	.	.	.	.	.
.	.	.	.	.	.	.	.	.	.	.	.	.	.	.	.	.	.	.	.	.	.	.	.	.	.	.	.	.	16AA/	.	.	.	.	.	.	.	.	.	.	.	.	.
8A\J	.	.	8A/J	.	8e/J	.	8g/J	.	.	.	.	.	.	.	.	.	.	.	.	.	.	.	.	.	.	.	.	.	16AA/	.	.	.	.	.	.	.	.	.	.	.	.	.
.	.	.	.	.	.	.	.	.	.	.	.	.	.	.	.	.	.	.	.	.	.	.	.	.	.	.	.	.	16AA/JJ	.	.	.	.	.	.	.	.	.	.	.	.	.
*	*	*	*	*	*	*	*	*	*	*	*	*	*	*	*	*	*	*	*	*	*	*	*	*	*	*	*	*	*Xtremolo	*	*	*	*	*	*	*	*	*	*	*	*	*
=25	=25	=25	=25	=25	=25	=25	=25	=25	=25	=25	=25	=25	=25	=25	=25	=25	=25	=25	=25	=25	=25	=25	=25	=25	=25	=25	=25	=25	=25	=25	=25	=25	=25	=25	=25	=25	=25	=25	=25	=25	=25	=25
!LO:TX:t=P:problem=mixed beam	!	!	!	!	!	!	!LO:TX:t=P:problem=mixed beam	!	!	!	!	!	!	!	!	!	!	!	!LO:SIC:s=4f#	!	!	!	!	!	!	!	!	!	!	!	!	!	!	!	!	!	!	!	!	!	!	!
8A\L	4_	.	8A/L	.	8d/L	.	8f#/L	.	4A\	-cel-	-cel-	.	.	2A\	-cel-	-cel-	.	.	(4f#\	-cel-	-cel-	.	.	4dd\	-cel-	-cel-	.	.	4D\	.	4d\	.	4f#\	.	4dd\	.	4ff#\	.	4dd\	.	4ff#\	.
8A\	.	.	8A/	.	8f#/	.	8dd\	.	.	.	.	.	.	.	.	.	.	.	.	.	.	.	.	.	.	.	.	.	.	.	.	.	.	.	.	.	.	.	.	.	.	.
!	!	!	!	!	!	!	!	!	!	!	!	!	!	!	!	!	!	!	!LO:SIC:s=4e	!	!	!	!	!	!	!	!	!	!	!	!	!	!	!	!	!	!	!	!	!	!	!
8AA/	3	.	8A/	.	8c#/	.	8e/	.	4AA/	.	.	.	.	.	.	.	.	.	4e\)	.	.	.	.	4cc#\	.	.	.	.	4AA/	.	4A/	.	4e\	.	4cc#\	.	4ee\	.	4cc#\	.	4ee\	.
8AA/J	.	.	8A/J	.	8e/J	.	8cc#\J	.	.	.	.	.	.	.	.	.	.	.	.	.	.	.	.	.	.	.	.	.	.	.	.	.	.	.	.	.	.	.	.	.	.	.
*	*	*	*Xtremolo	*	*	*	*	*	*	*	*	*	*	*	*	*	*	*	*	*	*	*	*	*	*	*	*	*	*	*	*	*	*	*	*	*	*	*	*	*	*	*
4D\	.	.	4A/	.	4f#/	.	4dd\	.	4D\	-sis	-sis.	.	.	4A\	-sis	-sis.	.	.	4f#\	-sis	-sis.	.	.	4dd\	-sis	-sis.	.	.	4D\	.	4F#/	.	4d\	.	4dd\	.	4ff#\	.	4dd\	.	4ff#\	.
4r	.	.	4r	.	4r	.	4r	.	4r	.	.	.	.	4r	.	.	.	.	4r	.	.	.	.	4r	.	.	.	.	4r	.	4r	.	4r	.	4r	.	4r	.	4r	.	4r	.
==	==	==	==	==	==	==	==	==	==	==	==	==	==	==	==	==	==	==	==	==	==	==	==	==	==	==	==	==	==	==	==	==	==	==	==	==	==	==	==	==	==	==
*-	*-	*-	*-	*-	*-	*-	*-	*-	*-	*-	*-	*-	*-	*-	*-	*-	*-	*-	*-	*-	*-	*-	*-	*-	*-	*-	*-	*-	*-	*-	*-	*-	*-	*-	*-	*-	*-	*-	*-	*-	*-	*-
!!!system-decoration: [(s1,s2,s3,s4)][(s5,s6)]<s7>[(s8,s9,s10,s11)][(s12,s13,s14)]<s15>
!!LO:MO:ori
!!!RDF**kern: > = above
!!!RDF**kern: < = below
!!!RDF**dynam: f = "for:", fontstyle="bold-italic"
!!!RDF**dynam: p = "pio:", fontstyle="bold-italic"
!!LO:MO:end
!!!filter-modern: sic -sq | autostem -r | tie -s | shed -k -e "s/[<>]//g" | shed -e "s/LO:DY:(a|b|rj)/LO:dy:$1/L" | shed -e "s/^(\d+[\/\\]right)/$1yy/I; s/^(\d+[\/\\]left)/$1yy/I" | shed -e "s/:t=P:/:T=P:/L" | modori -m
!!!ENC: Berenika Jozajtis
!!!END: 2020-07-01
!!!ENC: Andrzej Kubiczek
!!!END: 2021-11-22
!!!ENC-modern: Marta Lawrence
!!!END-modern: 2022-07-12
